;FLAVOR:Marlin
;TIME:29290
;Filament used: 25.0329m
;Layer height: 0.2
;MINX:9.032
;MINY:9.023
;MINZ:0.2
;MAXX:210.979
;MAXY:210.98
;MAXZ:31.8
;Generated with Cura_SteamEngine 5.2.1
M82 ;absolute extrusion mode
; Ender 3 Custom Start G-code
G92 E0 ; Reset Extruder
G28 ; Home all axes
M104 S175 ; Start heating up the nozzle most of the way
M190 S70 ; Start heating the bed, wait until target temperature reached
M109 S210.0 ; Finish heating the nozzle
G1 Z2.0 F3000 ; Move Z Axis up little to prevent scratching of Heat Bed
G1 X0.1 Y20 Z0.3 F5000.0 ; Move to start position
G1 X0.1 Y200.0 Z0.3 F1500.0 E15 ; Draw the first line
G1 X0.4 Y200.0 Z0.3 F5000.0 ; Move to side a little
G1 X0.4 Y20 Z0.3 F1500.0 E30 ; Draw the second line
G92 E0 ; Reset Extruder
G1 Z2.0 F3000 ; Move Z Axis up little to prevent scratching of Heat Bed
G1 X5 Y20 Z0.3 F5000.0 ; Move over to prevent blob squish
G92 E0
G92 E0
G1 F1500 E-6.5
;LAYER_COUNT:158
;LAYER:0
M107
G1 F300 Z0.4
G0 F6000 X38.131 Y39.074 Z0.4
;TYPE:SKIRT
G1 F300 Z0.2
G1 F1500 E0
G1 F1200 X38.859 Y38.356 E0.03401
G1 X41.683 Y35.656 E0.16396
G1 X42.261 Y35.118 E0.19022
G1 X43.292 Y34.212 E0.23587
G1 X46.364 Y31.61 E0.36977
G1 X47.109 Y31.002 E0.40175
G1 X47.952 Y30.351 E0.43718
G1 X51.077 Y28.009 E0.56707
G1 X51.937 Y27.388 E0.60235
G1 X52.678 Y26.882 E0.63219
G1 X56.199 Y24.557 E0.77253
G1 X56.982 Y24.061 E0.80336
G1 X57.78 Y23.584 E0.83428
G1 X61.41 Y21.487 E0.97371
G1 X62.22 Y21.04 E1.00448
G1 X63.167 Y20.55 E1.03995
G1 X66.661 Y18.802 E1.16989
G1 X67.656 Y18.327 E1.20656
G1 X68.402 Y17.995 E1.23372
G1 X72.307 Y16.325 E1.37498
G1 X73.18 Y15.971 E1.40631
G1 X74.016 Y15.656 E1.43602
G1 X77.981 Y14.236 E1.5761
G1 X78.59 Y14.028 E1.59751
G1 X79.866 Y13.63 E1.64196
G1 X83.78 Y12.487 E1.77758
G1 X84.669 Y12.246 E1.80822
G1 X85.575 Y12.025 E1.83923
G1 X89.482 Y11.132 E1.97253
G1 X90.589 Y10.9 E2.01015
G1 X91.597 Y10.718 E2.04422
G1 X95.592 Y10.055 E2.17891
G1 X96.546 Y9.915 E2.21098
G1 X97.537 Y9.796 E2.24418
G1 X101.427 Y9.387 E2.37427
G1 X102.564 Y9.288 E2.41223
G1 X103.577 Y9.228 E2.44599
G1 X107.451 Y9.054 E2.57497
G1 X108.589 Y9.023 E2.61283
G1 X109.621 Y9.023 E2.64715
G1 X113.522 Y9.081 E2.77692
G1 X114.318 Y9.104 E2.8034
G1 X115.479 Y9.168 E2.84208
G1 X119.729 Y9.485 E2.98382
G1 X120.626 Y9.57 E3.01379
G1 X121.515 Y9.676 E3.04357
G1 X125.726 Y10.247 E3.18491
G1 X126.642 Y10.389 E3.21574
G1 X127.634 Y10.57 E3.24928
G1 X131.627 Y11.357 E3.38464
G1 X132.219 Y11.482 E3.40477
G1 X133.427 Y11.77 E3.44607
G1 X137.486 Y12.826 E3.58557
G1 X138.422 Y13.088 E3.61789
G1 X139.396 Y13.389 E3.6518
G1 X143.214 Y14.631 E3.78534
G1 X144.169 Y14.962 E3.81896
G1 X145.147 Y15.33 E3.85371
G1 X148.888 Y16.799 E3.98739
G1 X149.808 Y17.181 E4.02052
G1 X150.541 Y17.507 E4.0472
G1 X154.388 Y19.288 E4.1882
G1 X155.261 Y19.713 E4.22049
G1 X156.198 Y20.2 E4.25562
G1 X159.634 Y22.049 E4.38539
G1 X160.564 Y22.571 E4.42087
G1 X161.48 Y23.119 E4.45637
G1 X164.89 Y25.227 E4.58971
G1 X165.715 Y25.759 E4.62236
G1 X166.579 Y26.348 E4.65714
G1 X169.929 Y28.708 E4.79343
G1 X170.636 Y29.228 E4.82262
G1 X171.489 Y29.888 E4.85849
G1 X174.52 Y32.304 E4.98741
G1 X175.363 Y33.001 E5.02379
G1 X176.173 Y33.709 E5.05957
G1 X179.165 Y36.404 E5.1935
G1 X179.643 Y36.848 E5.2152
G1 X180.6 Y37.785 E5.25975
G1 X183.312 Y40.537 E5.38826
G1 X184.094 Y41.359 E5.42599
G1 X184.686 Y42.014 E5.45536
G1 X187.374 Y45.09 E5.59123
G1 X187.864 Y45.666 E5.61638
G1 X188.712 Y46.723 E5.66145
G1 X191.182 Y49.917 E5.79574
G1 X191.768 Y50.706 E5.82843
G1 X192.376 Y51.571 E5.8636
G1 X194.533 Y54.735 E5.99096
G1 X194.99 Y55.424 E6.01846
G1 X195.72 Y56.595 E6.06435
G1 X197.71 Y59.926 E6.19341
G1 X198.088 Y60.577 E6.21845
G1 X198.768 Y61.834 E6.26598
G1 X200.621 Y65.404 E6.39976
G1 X201.028 Y66.228 E6.43033
G1 X201.489 Y67.223 E6.4668
G1 X203.122 Y70.893 E6.6004
G1 X203.49 Y71.764 E6.63185
G1 X203.804 Y72.56 E6.66031
G1 X205.29 Y76.519 E6.80096
G1 X205.61 Y77.424 E6.83289
G1 X205.938 Y78.435 E6.86824
G1 X207.091 Y82.175 E6.99841
G1 X207.387 Y83.199 E7.03386
G1 X207.607 Y84.044 E7.0629
G1 X208.563 Y87.958 E7.19691
G1 X208.818 Y89.088 E7.23544
G1 X209.019 Y90.11 E7.27008
G1 X209.707 Y93.898 E7.39813
G1 X209.887 Y95.003 E7.43537
G1 X210.013 Y95.923 E7.46626
G1 X210.504 Y100.005 E7.603
G1 X210.61 Y101.045 E7.63777
G1 X210.673 Y101.87 E7.66529
G1 X210.925 Y106.085 E7.80573
G1 X210.966 Y107.071 E7.83856
G1 X210.979 Y107.901 E7.86616
G1 X210.979 Y112.145 E8.00732
G1 X210.97 Y112.763 E8.02788
G1 X210.912 Y114.151 E8.07408
G1 X210.669 Y118.2 E8.209
G1 X210.597 Y119.102 E8.23909
G1 X210.481 Y120.199 E8.27578
G1 X210.008 Y124.121 E8.40717
G1 X209.867 Y125.132 E8.44112
G1 X209.692 Y126.182 E8.47653
G1 X208.971 Y130.151 E8.6107
G1 X208.788 Y131.058 E8.64147
G1 X208.549 Y132.102 E8.6771
G1 X207.598 Y135.995 E8.81039
G1 X207.344 Y136.952 E8.84332
G1 X207.06 Y137.925 E8.87703
G1 X205.907 Y141.665 E9.0072
G1 X205.673 Y142.39 E9.03254
G1 X205.268 Y143.538 E9.07303
G1 X203.788 Y147.481 E9.21311
G1 X203.443 Y148.35 E9.2442
G1 X203.017 Y149.347 E9.28026
G1 X201.455 Y152.853 E9.40792
G1 X200.979 Y153.872 E9.44533
G1 X200.484 Y154.861 E9.48212
G1 X198.664 Y158.366 E9.61347
G1 X198.17 Y159.276 E9.64791
G1 X197.683 Y160.118 E9.68026
G1 X195.593 Y163.615 E9.81576
G1 X195.085 Y164.429 E9.84768
G1 X194.599 Y165.167 E9.87707
G1 X192.265 Y168.59 E10.01486
G1 X191.67 Y169.429 E10.04907
G1 X191.143 Y170.133 E10.07832
G1 X188.583 Y173.443 E10.2175
G1 X187.968 Y174.208 E10.25014
G1 X187.311 Y174.982 E10.28391
G1 X184.757 Y177.906 E10.41304
G1 X184.018 Y178.723 E10.44968
G1 X183.238 Y179.539 E10.48723
G1 X180.578 Y182.238 E10.61326
G1 X179.974 Y182.835 E10.64151
G1 X178.996 Y183.749 E10.68603
G1 X176.09 Y186.367 E10.81613
G1 X175.273 Y187.076 E10.8521
G1 X174.568 Y187.656 E10.88247
G1 X171.305 Y190.258 E11.02128
G1 X170.517 Y190.862 E11.0543
G1 X169.722 Y191.439 E11.08697
G1 X166.37 Y193.798 E11.2233
G1 X165.601 Y194.317 E11.25416
G1 X164.869 Y194.786 E11.28307
G1 X161.273 Y197.008 E11.42367
G1 X160.453 Y197.492 E11.45534
G1 X159.526 Y198.009 E11.49064
G1 X156.095 Y199.855 E11.62022
G1 X155.135 Y200.35 E11.65615
G1 X154.176 Y200.811 E11.69154
G1 X150.548 Y202.49 E11.8245
G1 X149.611 Y202.903 E11.85856
G1 X148.827 Y203.224 E11.88674
G1 X144.936 Y204.753 E12.02579
G1 X143.999 Y205.1 E12.05902
G1 X143.201 Y205.373 E12.08707
G1 X139.206 Y206.672 E12.22679
G1 X138.575 Y206.867 E12.24876
G1 X137.257 Y207.236 E12.29428
G1 X133.519 Y208.207 E12.42273
G1 X132.404 Y208.476 E12.46088
G1 X131.41 Y208.687 E12.49468
G1 X127.602 Y209.437 E12.62377
G1 X126.488 Y209.635 E12.6614
G1 X125.466 Y209.79 E12.69578
G1 X121.572 Y210.317 E12.82648
G1 X120.5 Y210.443 E12.86238
G1 X119.662 Y210.519 E12.89036
G1 X115.434 Y210.835 E13.03138
G1 X114.458 Y210.89 E13.06389
G1 X113.468 Y210.919 E13.09683
G1 X109.539 Y210.979 E13.22753
G1 X108.768 Y210.98 E13.25317
G1 X107.381 Y210.943 E13.29932
G1 X103.309 Y210.759 E13.43489
G1 X102.754 Y210.726 E13.45339
G1 X101.338 Y210.603 E13.50066
G1 X97.352 Y210.183 E13.63397
G1 X96.384 Y210.062 E13.66642
G1 X95.362 Y209.908 E13.70079
G1 X91.415 Y209.251 E13.83387
G1 X90.429 Y209.069 E13.86722
G1 X89.593 Y208.893 E13.89564
G1 X85.454 Y207.948 E14.03684
G1 X84.545 Y207.722 E14.068
G1 X83.697 Y207.488 E14.09726
G1 X79.648 Y206.306 E14.23755
G1 X79.061 Y206.125 E14.25798
G1 X77.886 Y205.729 E14.29922
G1 X74.065 Y204.362 E14.43419
G1 X73.08 Y203.99 E14.46921
G1 X72.243 Y203.648 E14.49929
G1 X68.524 Y202.059 E14.6338
G1 X67.791 Y201.734 E14.66047
G1 X66.709 Y201.219 E14.70032
G1 X62.912 Y199.321 E14.84151
G1 X62.116 Y198.903 E14.87142
G1 X61.189 Y198.386 E14.90672
G1 X57.828 Y196.445 E15.03581
G1 X56.866 Y195.867 E15.07314
G1 X56.147 Y195.409 E15.10149
G1 X52.646 Y193.098 E15.24101
G1 X51.803 Y192.519 E15.27503
G1 X51.159 Y192.052 E15.30149
G1 X47.76 Y189.504 E15.44278
G1 X46.986 Y188.9 E15.47543
G1 X46.346 Y188.375 E15.50296
G1 X43.078 Y185.605 E15.64545
G1 X42.4 Y185.009 E15.67547
G1 X41.749 Y184.405 E15.70501
G1 X38.707 Y181.496 E15.845
G1 X38.026 Y180.819 E15.87694
G1 X37.408 Y180.173 E15.90668
G1 X34.589 Y177.135 E16.04452
G1 X34.131 Y176.628 E16.06725
G1 X33.352 Y175.716 E16.10714
G1 X30.694 Y172.486 E16.24627
G1 X30.074 Y171.701 E16.27954
G1 X29.467 Y170.89 E16.31323
G1 X27.076 Y167.599 E16.44853
G1 X26.546 Y166.838 E16.47937
G1 X25.954 Y165.94 E16.51515
G1 X23.808 Y162.578 E16.6478
G1 X23.281 Y161.719 E16.68132
G1 X22.764 Y160.821 E16.71579
G1 X20.797 Y157.293 E16.85013
G1 X20.504 Y156.75 E16.87066
G1 X19.886 Y155.524 E16.91632
G1 X18.189 Y152 E17.04641
G1 X17.736 Y151.012 E17.08256
G1 X17.315 Y150.024 E17.11828
G1 X15.791 Y146.307 E17.2519
G1 X15.442 Y145.406 E17.28403
G1 X15.168 Y144.645 E17.31094
G1 X13.826 Y140.716 E17.44903
G1 X13.495 Y139.689 E17.48492
G1 X13.256 Y138.872 E17.51323
G1 X12.185 Y134.999 E17.64688
G1 X11.888 Y133.842 E17.68661
G1 X11.667 Y132.871 E17.71973
G1 X10.817 Y128.871 E17.85574
G1 X10.644 Y127.971 E17.88622
G1 X10.502 Y127.123 E17.91482
G1 X9.866 Y122.903 E18.05676
G1 X9.745 Y121.973 E18.08796
G1 X9.64 Y120.972 E18.12143
G1 X9.274 Y116.898 E18.25748
G1 X9.208 Y115.964 E18.28862
G1 X9.169 Y115.098 E18.31746
G1 X9.046 Y111.025 E18.45299
G1 X9.032 Y109.941 E18.48904
G1 X9.049 Y108.86 E18.525
G1 X9.164 Y105.017 E18.65288
G1 X9.218 Y103.875 E18.6909
G1 X9.282 Y103.017 E18.71952
G1 X9.661 Y98.8 E18.86034
G1 X9.762 Y97.881 E18.89109
G1 X9.88 Y97.004 E18.92052
G1 X10.511 Y92.817 E19.06136
G1 X10.667 Y91.906 E19.0921
G1 X10.871 Y90.869 E19.12725
G1 X11.678 Y87.072 E19.25636
G1 X11.851 Y86.308 E19.28241
G1 X12.2 Y84.947 E19.32915
G1 X13.219 Y81.254 E19.45657
G1 X13.541 Y80.164 E19.49437
G1 X13.863 Y79.172 E19.52906
G1 X15.123 Y75.482 E19.65874
G1 X15.382 Y74.756 E19.68438
G1 X15.824 Y73.614 E19.72511
G1 X17.414 Y69.734 E19.86458
G1 X17.67 Y69.135 E19.88624
G1 X18.224 Y67.93 E19.93035
G1 X19.973 Y64.298 E20.06443
G1 X20.407 Y63.439 E20.09644
G1 X20.939 Y62.449 E20.13382
G1 X22.805 Y59.105 E20.26119
G1 X23.37 Y58.133 E20.29858
G1 X23.921 Y57.243 E20.3334
G1 X26.024 Y53.95 E20.46335
G1 X26.616 Y53.06 E20.4989
G1 X27.217 Y52.206 E20.53364
G1 X29.505 Y49.056 E20.66313
G1 X30.178 Y48.164 E20.70029
G1 X30.821 Y47.358 E20.73458
G1 X33.405 Y44.218 E20.86984
G1 X34.012 Y43.507 E20.90093
G1 X34.739 Y42.702 E20.93701
G1 X37.353 Y39.884 E21.06485
G1 X38.131 Y39.074 E21.10221
G0 F6000 X38.412 Y39.359
G1 F1200 X39.136 Y38.645 E21.13603
G1 X41.96 Y35.945 E21.26597
G1 X42.761 Y35.206 E21.30222
G1 X43.55 Y34.517 E21.33706
G1 X46.618 Y31.918 E21.4708
G1 X47.354 Y31.318 E21.50238
G1 X48.192 Y30.671 E21.53759
G1 X51.438 Y28.239 E21.6725
G1 X52.162 Y27.718 E21.70216
G1 X53.04 Y27.12 E21.7375
G1 X56.29 Y24.974 E21.86703
G1 X57.187 Y24.405 E21.90236
G1 X58.122 Y23.847 E21.93858
G1 X61.479 Y21.908 E22.06752
G1 X62.405 Y21.395 E22.10273
G1 X63.346 Y20.908 E22.13797
G1 X66.84 Y19.16 E22.26791
G1 X67.529 Y18.827 E22.29336
G1 X68.706 Y18.299 E22.33627
G1 X72.315 Y16.755 E22.46683
G1 X73.321 Y16.346 E22.50295
G1 X74.321 Y15.971 E22.53847
G1 X78.11 Y14.615 E22.67232
G1 X79.008 Y14.313 E22.70383
G1 X79.978 Y14.014 E22.73759
G1 X83.738 Y12.915 E22.86788
G1 X84.764 Y12.635 E22.90325
G1 X85.822 Y12.378 E22.93947
G1 X89.571 Y11.522 E23.06737
G1 X90.661 Y11.293 E23.10441
G1 X91.663 Y11.112 E23.13828
G1 X95.512 Y10.473 E23.26805
G1 X96.594 Y10.312 E23.30443
G1 X97.579 Y10.194 E23.33743
G1 X101.62 Y9.77 E23.47257
G1 X102.588 Y9.687 E23.50488
G1 X103.431 Y9.636 E23.53297
G1 X107.622 Y9.448 E23.67251
G1 X108.59 Y9.423 E23.70471
G1 X109.615 Y9.423 E23.73881
G1 X113.516 Y9.481 E23.86857
G1 X114.306 Y9.504 E23.89485
G1 X115.618 Y9.578 E23.93856
G1 X119.541 Y9.871 E24.0694
G1 X120.265 Y9.935 E24.09358
G1 X121.638 Y10.095 E24.13955
G1 X125.529 Y10.623 E24.27015
G1 X126.571 Y10.783 E24.30522
G1 X127.557 Y10.963 E24.33855
G1 X131.544 Y11.749 E24.47371
G1 X132.441 Y11.943 E24.50424
G1 X133.508 Y12.203 E24.54077
G1 X137.25 Y13.177 E24.66937
G1 X138.304 Y13.47 E24.70576
G1 X139.272 Y13.769 E24.73945
G1 X142.945 Y14.963 E24.86791
G1 X144.029 Y15.336 E24.90604
G1 X144.846 Y15.642 E24.93506
G1 X148.736 Y17.169 E25.07405
G1 X149.354 Y17.422 E25.09626
G1 X150.379 Y17.873 E25.13351
G1 X154.214 Y19.648 E25.27406
G1 X155.077 Y20.068 E25.30598
G1 X155.864 Y20.476 E25.33547
G1 X159.572 Y22.472 E25.47553
G1 X160.359 Y22.915 E25.50556
G1 X161.27 Y23.46 E25.54087
G1 X164.675 Y25.565 E25.67402
G1 X165.49 Y26.089 E25.70624
G1 X166.205 Y26.575 E25.735
G1 X169.694 Y29.032 E25.87693
G1 X170.392 Y29.544 E25.90572
G1 X171.112 Y30.1 E25.93598
G1 X174.271 Y32.617 E26.07032
G1 X175.1 Y33.303 E26.10611
G1 X175.905 Y34.006 E26.14166
G1 X178.771 Y36.586 E26.26991
G1 X179.59 Y37.351 E26.30719
G1 X180.315 Y38.066 E26.34106
G1 X183.139 Y40.933 E26.4749
G1 X183.797 Y41.627 E26.50671
G1 X184.389 Y42.282 E26.53608
G1 X187.173 Y45.47 E26.67685
G1 X187.758 Y46.167 E26.70712
G1 X188.396 Y46.968 E26.74117
G1 X190.862 Y50.157 E26.87525
G1 X191.249 Y50.672 E26.89668
G1 X192.045 Y51.796 E26.94249
G1 X194.202 Y54.96 E27.06985
G1 X194.656 Y55.645 E27.09719
G1 X195.377 Y56.801 E27.1425
G1 X197.367 Y60.132 E27.27155
G1 X197.905 Y61.07 E27.30752
G1 X198.343 Y61.885 E27.33829
G1 X200.263 Y65.583 E27.47688
G1 X200.665 Y66.397 E27.50708
G1 X201.124 Y67.386 E27.54334
G1 X202.754 Y71.05 E27.67672
G1 X203.118 Y71.91 E27.70778
G1 X203.432 Y72.706 E27.73624
G1 X204.865 Y76.523 E27.87185
G1 X205.23 Y77.548 E27.90803
G1 X205.556 Y78.553 E27.94318
G1 X206.709 Y82.293 E28.07335
G1 X207 Y83.3 E28.10821
G1 X207.26 Y84.303 E28.14267
G1 X208.21 Y88.2 E28.27608
G1 X208.36 Y88.855 E28.29843
G1 X208.595 Y90.021 E28.33799
G1 X209.341 Y94.127 E28.47679
G1 X209.491 Y95.058 E28.50816
G1 X209.639 Y96.151 E28.54484
G1 X210.09 Y99.904 E28.67057
G1 X210.211 Y101.076 E28.70976
G1 X210.286 Y102.076 E28.74311
G1 X210.526 Y106.104 E28.87732
G1 X210.566 Y107.077 E28.90971
G1 X210.579 Y107.907 E28.93732
G1 X210.579 Y112.139 E29.07807
G1 X210.561 Y113.067 E29.10895
G1 X210.513 Y114.127 E29.14424
G1 X210.28 Y118.022 E29.27402
G1 X210.228 Y118.739 E29.29793
G1 X210.084 Y120.151 E29.34513
G1 X209.629 Y123.93 E29.47173
G1 X209.473 Y125.067 E29.5099
G1 X209.299 Y126.111 E29.54511
G1 X208.606 Y129.93 E29.6742
G1 X208.398 Y130.97 E29.70948
G1 X208.161 Y132.007 E29.74486
G1 X207.25 Y135.74 E29.87266
G1 X207.042 Y136.544 E29.90028
G1 X206.678 Y137.807 E29.944
G1 X205.525 Y141.547 E30.07417
G1 X205.193 Y142.558 E30.10956
G1 X204.832 Y143.565 E30.14514
G1 X203.416 Y147.335 E30.27909
G1 X203.075 Y148.193 E30.30979
G1 X202.652 Y149.184 E30.34563
G1 X201.09 Y152.69 E30.47329
G1 X200.757 Y153.411 E30.49971
G1 X200.129 Y154.677 E30.54671
G1 X198.312 Y158.177 E30.67787
G1 X197.824 Y159.076 E30.71189
G1 X197.34 Y159.913 E30.74405
G1 X195.334 Y163.271 E30.87415
G1 X194.751 Y164.209 E30.91088
G1 X194.17 Y165.089 E30.94596
G1 X192.02 Y168.242 E31.07289
G1 X191.35 Y169.189 E31.11147
G1 X190.722 Y170.026 E31.14627
G1 X188.364 Y173.075 E31.27447
G1 X187.662 Y173.95 E31.31178
G1 X187.116 Y174.595 E31.33989
G1 X184.357 Y177.754 E31.47939
G1 X183.728 Y178.447 E31.51052
G1 X182.953 Y179.259 E31.54785
G1 X180.293 Y181.958 E31.67389
G1 X179.466 Y182.767 E31.71237
G1 X178.728 Y183.451 E31.74584
G1 X175.701 Y186.177 E31.88132
G1 X175.018 Y186.767 E31.91134
G1 X174.188 Y187.449 E31.94707
G1 X171.06 Y189.942 E32.08011
G1 X170.543 Y190.343 E32.10187
G1 X169.492 Y191.112 E32.14519
G1 X166.271 Y193.38 E32.27621
G1 X165.643 Y193.81 E32.30152
G1 X164.506 Y194.542 E32.3465
G1 X161.202 Y196.583 E32.47567
G1 X160.523 Y196.99 E32.502
G1 X159.336 Y197.657 E32.54728
G1 X155.781 Y199.569 E32.68154
G1 X154.961 Y199.99 E32.7122
G1 X154.008 Y200.448 E32.74737
G1 X150.385 Y202.125 E32.88015
G1 X149.459 Y202.533 E32.91381
G1 X148.536 Y202.91 E32.94697
G1 X144.943 Y204.322 E33.07537
G1 X143.869 Y204.721 E33.11347
G1 X142.917 Y205.046 E33.14693
G1 X139.235 Y206.243 E33.2757
G1 X138.162 Y206.571 E33.31302
G1 X137.156 Y206.849 E33.34774
G1 X133.418 Y207.82 E33.47619
G1 X132.635 Y208.013 E33.50301
G1 X131.496 Y208.261 E33.54178
G1 X127.368 Y209.074 E33.68172
G1 X126.428 Y209.24 E33.71347
G1 X125.413 Y209.393 E33.74761
G1 X121.379 Y209.938 E33.883
G1 X120.463 Y210.045 E33.91367
G1 X119.458 Y210.135 E33.94723
