;FLAVOR:Marlin
;TIME:27889
;Filament used: 19.7896m
;Layer height: 0.2
;MINX:38.25
;MINY:56.5
;MINZ:0.2
;MAXX:181.75
;MAXY:163.5
;MAXZ:47
;Generated with Cura_SteamEngine 5.2.1
M82 ;absolute extrusion mode
; Ender 3 Custom Start G-code
G92 E0 ; Reset Extruder
G28 ; Home all axes
M104 S175 ; Start heating up the nozzle most of the way
M190 S70 ; Start heating the bed, wait until target temperature reached
M109 S220.0 ; Finish heating the nozzle
G1 Z2.0 F3000 ; Move Z Axis up little to prevent scratching of Heat Bed
G1 X0.1 Y20 Z0.3 F5000.0 ; Move to start position
G1 X0.1 Y200.0 Z0.3 F1500.0 E15 ; Draw the first line
G1 X0.4 Y200.0 Z0.3 F5000.0 ; Move to side a little
G1 X0.4 Y20 Z0.3 F1500.0 E30 ; Draw the second line
G92 E0 ; Reset Extruder
G1 Z2.0 F3000 ; Move Z Axis up little to prevent scratching of Heat Bed
G1 X5 Y20 Z0.3 F5000.0 ; Move over to prevent blob squish
G92 E0
G92 E0
G1 F1500 E-6.5
;LAYER_COUNT:235
;LAYER:0
M107
G0 F6000 X42.89 Y58.541 Z0.2
;TYPE:SKIRT
G1 F1500 E0
G1 F1200 X43.677 Y58.031 E0.03119
G1 X44.505 Y57.59 E0.06239
G1 X45.367 Y57.221 E0.09358
G1 X46.258 Y56.927 E0.12479
G1 X47.17 Y56.709 E0.15597
G1 X48.097 Y56.571 E0.18715
G1 X48.951 Y56.513 E0.21562
G1 X49.58 Y56.5 E0.23654
G1 X170.201 Y56.501 E4.24841
G1 X170.899 Y56.511 E4.27163
G1 X171.835 Y56.565 E4.30281
G1 X172.763 Y56.697 E4.33399
G1 X173.677 Y56.909 E4.3652
G1 X174.569 Y57.198 E4.39638
G1 X175.434 Y57.561 E4.42758
G1 X176.264 Y57.997 E4.45877
G1 X177.055 Y58.502 E4.48998
G1 X177.799 Y59.073 E4.52117
G1 X178.492 Y59.705 E4.55237
G1 X179.129 Y60.393 E4.58355
G1 X179.704 Y61.134 E4.61475
G1 X180.215 Y61.92 E4.64593
G1 X180.657 Y62.748 E4.67715
G1 X181.026 Y63.61 E4.70833
G1 X181.321 Y64.5 E4.73952
G1 X181.539 Y65.412 E4.77071
G1 X181.679 Y66.34 E4.80192
G1 X181.737 Y67.201 E4.83062
G1 X181.75 Y67.83 E4.85155
G1 X181.749 Y141.95 E7.31679
G1 X181.739 Y142.652 E7.34014
G1 X181.686 Y143.588 E7.37132
G1 X181.553 Y144.516 E7.4025
G1 X181.341 Y145.43 E7.43371
G1 X181.053 Y146.323 E7.46492
G1 X180.689 Y147.187 E7.4961
G1 X180.253 Y148.018 E7.52731
G1 X179.748 Y148.808 E7.5585
G1 X179.178 Y149.552 E7.58967
G1 X178.805 Y149.976 E7.60845
G1 X178.379 Y150.424 E7.62901
G1 X169.024 Y159.783 E8.06914
G1 X168.404 Y160.386 E8.09791
G1 X167.703 Y161.01 E8.12912
G1 X166.952 Y161.571 E8.1603
G1 X166.156 Y162.067 E8.19149
G1 X165.321 Y162.493 E8.22267
G1 X164.452 Y162.847 E8.25388
G1 X163.556 Y163.125 E8.28508
G1 X162.64 Y163.326 E8.31627
G1 X161.71 Y163.448 E8.34747
G1 X160.942 Y163.488 E8.37305
G1 X160.188 Y163.5 E8.39813
G1 X121.299 Y163.499 E9.69158
G1 X120.602 Y163.489 E9.71477
G1 X119.687 Y163.438 E9.74525
G1 X118.842 Y163.355 E9.77349
G1 X116.293 Y163.14 E9.85857
G1 X113.764 Y162.998 E9.94282
G1 X111.238 Y162.927 E10.02686
G1 X108.715 Y162.927 E10.11078
G1 X106.229 Y162.998 E10.1935
G1 X103.701 Y163.142 E10.27772
G1 X101.656 Y163.315 E10.34598
G1 X100.275 Y163.443 E10.39211
G1 X99.451 Y163.488 E10.41955
G1 X98.688 Y163.5 E10.44493
G1 X59.8 Y163.499 E11.73835
G1 X59.098 Y163.489 E11.7617
G1 X58.162 Y163.436 E11.79289
G1 X57.234 Y163.303 E11.82407
G1 X56.32 Y163.091 E11.85527
G1 X55.427 Y162.803 E11.88648
G1 X54.563 Y162.439 E11.91766
G1 X53.732 Y162.003 E11.94888
G1 X52.942 Y161.498 E11.98006
G1 X52.198 Y160.928 E12.01123
G1 X51.774 Y160.555 E12.03002
G1 X51.327 Y160.129 E12.05055
G1 X41.847 Y150.653 E12.49637
G1 X41.377 Y150.17 E12.51879
G1 X40.753 Y149.471 E12.54995
G1 X40.19 Y148.721 E12.58114
G1 X39.693 Y147.925 E12.61235
G1 X39.265 Y147.091 E12.64353
G1 X38.91 Y146.223 E12.67472
G1 X38.631 Y145.327 E12.70594
G1 X38.429 Y144.411 E12.73713
G1 X38.305 Y143.482 E12.76831
G1 X38.263 Y142.715 E12.79386
G1 X38.25 Y141.938 E12.8197
G1 X38.251 Y68.009 E15.27859
G1 X38.261 Y67.344 E15.30071
G1 X38.315 Y66.407 E15.33193
G1 X38.449 Y65.479 E15.36311
G1 X38.661 Y64.565 E15.39432
G1 X38.95 Y63.673 E15.42551
G1 X39.315 Y62.809 E15.4567
G1 X39.751 Y61.979 E15.48789
G1 X40.257 Y61.189 E15.51909
G1 X40.828 Y60.445 E15.55028
G1 X41.46 Y59.752 E15.58148
G1 X42.149 Y59.116 E15.61266
G1 X42.89 Y58.541 E15.64386
G0 F6000 X43.274 Y58.761
G1 F1200 X44.056 Y58.274 E15.6745
G1 X44.877 Y57.858 E15.70511
G1 X45.731 Y57.514 E15.73573
G1 X46.611 Y57.245 E15.76634
G1 X47.512 Y57.054 E15.79697
G1 X48.426 Y56.942 E15.8276
G1 X48.962 Y56.913 E15.84545
G1 X49.58 Y56.9 E15.86601
G1 X170.195 Y56.901 E19.87768
G1 X170.893 Y56.911 E19.9009
G1 X171.812 Y56.964 E19.93152
G1 X172.723 Y57.097 E19.96214
G1 X173.619 Y57.308 E19.99276
G1 X174.493 Y57.596 E20.02336
G1 X175.34 Y57.959 E20.05401
G1 X176.151 Y58.394 E20.08462
G1 X176.921 Y58.898 E20.11523
G1 X177.645 Y59.467 E20.14586
G1 X178.317 Y60.097 E20.17649
G1 X178.932 Y60.782 E20.20711
G1 X179.485 Y61.518 E20.23773
G1 X179.972 Y62.299 E20.26834
G1 X180.389 Y63.12 E20.29897
G1 X180.734 Y63.974 E20.32961
G1 X181.003 Y64.854 E20.36021
G1 X181.195 Y65.755 E20.39085
G1 X181.308 Y66.668 E20.42145
G1 X181.337 Y67.212 E20.43957
G1 X181.35 Y67.83 E20.46013
G1 X181.349 Y141.944 E22.92517
G1 X181.339 Y142.646 E22.94852
G1 X181.286 Y143.565 E22.97914
G1 X181.153 Y144.476 E23.00976
G1 X180.942 Y145.372 E23.04038
G1 X180.654 Y146.247 E23.07101
G1 X180.291 Y147.093 E23.10163
G1 X179.856 Y147.904 E23.13224
G1 X179.352 Y148.675 E23.16288
G1 X178.511 Y149.704 E23.20708
G1 X178.096 Y150.141 E23.22712
G1 X168.741 Y159.5 E23.66725
G1 X168.125 Y160.099 E23.69583
G1 X167.437 Y160.711 E23.72645
G1 X166.698 Y161.26 E23.75707
G1 X165.915 Y161.744 E23.78769
G1 X165.093 Y162.157 E23.81829
G1 X164.237 Y162.498 E23.84893
G1 X163.356 Y162.763 E23.87953
G1 X162.454 Y162.951 E23.91018
G1 X161.54 Y163.06 E23.94079
G1 X160.935 Y163.088 E23.96094
G1 X160.188 Y163.1 E23.98578
G1 X121.305 Y163.099 E25.27904
G1 X120.608 Y163.089 E25.30222
G1 X119.726 Y163.039 E25.33161
G1 X118.913 Y162.959 E25.35878
G1 X116.316 Y162.74 E25.44546
G1 X113.797 Y162.598 E25.52938
G1 X111.249 Y162.527 E25.61415
G1 X108.738 Y162.527 E25.69767
G1 X106.197 Y162.6 E25.78222
G1 X103.679 Y162.743 E25.8661
G1 X101.59 Y162.919 E25.93583
G1 X100.238 Y163.045 E25.98099
G1 X99.444 Y163.088 E26.00744
G1 X98.688 Y163.1 E26.03259
G1 X59.806 Y163.099 E27.32581
G1 X59.104 Y163.089 E27.34916
G1 X58.185 Y163.036 E27.37978
G1 X57.274 Y162.903 E27.4104
G1 X56.378 Y162.692 E27.44101
G1 X55.503 Y162.404 E27.47165
G1 X54.657 Y162.041 E27.50227
G1 X53.846 Y161.606 E27.53288
G1 X53.075 Y161.102 E27.56352
G1 X52.046 Y160.261 E27.60772
G1 X51.61 Y159.846 E27.62774
G1 X42.134 Y150.374 E28.07337
G1 X41.664 Y149.891 E28.09578
G1 X41.051 Y149.204 E28.12641
G1 X40.5 Y148.467 E28.15701
G1 X40.016 Y147.684 E28.18763
G1 X39.601 Y146.862 E28.21825
G1 X39.258 Y146.007 E28.24889
G1 X38.992 Y145.126 E28.2795
G1 X38.803 Y144.225 E28.31012
G1 X38.692 Y143.311 E28.34075
G1 X38.663 Y142.707 E28.36086
G1 X38.65 Y141.938 E28.38644
G1 X38.651 Y68.015 E30.84513
G1 X38.661 Y67.35 E30.86725
G1 X38.715 Y66.431 E30.89787
G1 X38.848 Y65.52 E30.92849
G1 X39.06 Y64.624 E30.95911
G1 X39.349 Y63.749 E30.98976
G1 X39.713 Y62.904 E31.02036
G1 X40.148 Y62.093 E31.05097
G1 X40.653 Y61.322 E31.08163
G1 X41.222 Y60.599 E31.11223
G1 X41.852 Y59.927 E31.14286
G1 X42.538 Y59.313 E31.17349
G1 X43.274 Y58.761 E31.20408
G0 F6000 X43.657 Y58.985
G1 F1200 X44.433 Y58.523 E31.23412
G1 X45.247 Y58.132 E31.26416
G1 X46.092 Y57.813 E31.2942
G1 X46.962 Y57.571 E31.32423
G1 X47.85 Y57.407 E31.35427
G1 X48.973 Y57.313 E31.39175
G1 X49.58 Y57.3 E31.41194
G1 X170.189 Y57.301 E35.42341
G1 X170.887 Y57.311 E35.44663
G1 X171.789 Y57.364 E35.47669
G1 X172.682 Y57.496 E35.50671
G1 X173.56 Y57.707 E35.53674
G1 X174.416 Y57.995 E35.56678
G1 X175.243 Y58.357 E35.59681
G1 X176.035 Y58.792 E35.62686
G1 X176.786 Y59.294 E35.65691
G1 X177.489 Y59.861 E35.68695
G1 X178.139 Y60.488 E35.71698
G1 X178.731 Y61.17 E35.74702
G1 X179.261 Y61.901 E35.77705
G1 X179.723 Y62.677 E35.80709
G1 X180.116 Y63.49 E35.83712
G1 X180.434 Y64.335 E35.86715
G1 X180.677 Y65.205 E35.8972
G1 X180.842 Y66.093 E35.92724
G1 X180.937 Y67.223 E35.96495
G1 X180.95 Y67.83 E35.98515
G1 X180.949 Y141.938 E38.44999
G1 X180.939 Y142.64 E38.47334
G1 X180.886 Y143.542 E38.50339
G1 X180.754 Y144.435 E38.53342
G1 X180.543 Y145.313 E38.56345
G1 X180.255 Y146.169 E38.59349
G1 X179.893 Y146.997 E38.62355
G1 X179.459 Y147.789 E38.65358
G1 X178.956 Y148.539 E38.68362
G1 X178.218 Y149.432 E38.72215
G1 X177.813 Y149.858 E38.7417
G1 X168.346 Y159.328 E39.18707
G1 X167.847 Y159.812 E39.21019
G1 X167.171 Y160.411 E39.24023
G1 X166.445 Y160.949 E39.27029
G1 X165.675 Y161.42 E39.30031
G1 X164.866 Y161.821 E39.33034
G1 X164.024 Y162.149 E39.36039
G1 X163.157 Y162.401 E39.39042
G1 X162.271 Y162.575 E39.42046
G1 X160.928 Y162.688 E39.46528
G1 X160.188 Y162.7 E39.4899
G1 X121.311 Y162.699 E40.78295
G1 X120.614 Y162.689 E40.80614
G1 X119.765 Y162.641 E40.83442
G1 X118.983 Y162.564 E40.86056
G1 X116.336 Y162.341 E40.94891
G1 X113.796 Y162.198 E41.03352
G1 X111.26 Y162.127 E41.1179
G1 X108.727 Y162.127 E41.20215
G1 X106.162 Y162.2 E41.2875
G1 X103.661 Y162.343 E41.37082
G1 X101.515 Y162.524 E41.44245
G1 X100.201 Y162.646 E41.48634
G1 X99.437 Y162.688 E41.51179
G1 X98.688 Y162.7 E41.5367
G1 X59.812 Y162.699 E42.82972
G1 X59.11 Y162.689 E42.85307
G1 X58.208 Y162.636 E42.88313
G1 X57.315 Y162.504 E42.91315
G1 X56.437 Y162.293 E42.94318
G1 X55.581 Y162.005 E42.97322
G1 X54.753 Y161.643 E43.00328
G1 X53.961 Y161.209 E43.03332
G1 X53.211 Y160.706 E43.06335
G1 X52.318 Y159.968 E43.10188
G1 X51.892 Y159.563 E43.12143
G1 X42.52 Y150.196 E43.56215
G1 X41.951 Y149.612 E43.58927
G1 X41.35 Y148.938 E43.6193
G1 X40.812 Y148.213 E43.64933
G1 X40.339 Y147.443 E43.67938
G1 X39.937 Y146.635 E43.7094
G1 X39.608 Y145.794 E43.73944
G1 X39.354 Y144.927 E43.76949
G1 X39.178 Y144.041 E43.79953
G1 X39.063 Y142.699 E43.84433
G1 X39.05 Y141.938 E43.86964
G1 X39.051 Y68.021 E46.32813
G1 X39.061 Y67.356 E46.35025
G1 X39.115 Y66.454 E46.38031
G1 X39.248 Y65.561 E46.41034
G1 X39.459 Y64.683 E46.44037
G1 X39.748 Y63.827 E46.47042
G1 X40.111 Y63 E46.50046
G1 X40.545 Y62.209 E46.53047
G1 X41.048 Y61.458 E46.56053
G1 X41.616 Y60.756 E46.59057
G1 X42.243 Y60.106 E46.6206
G1 X42.925 Y59.514 E46.65064
G1 X43.657 Y58.985 E46.68068
G1 F1500 E40.18068
;MESH:Reciever Body v1.stl
G0 F6000 X49.67 Y66.835
G0 X99 Y151.9
;TYPE:WALL-INNER
G1 F1500 E46.68068
G1 F1200 X108.65 Y142.25 E47.13459
G1 X108.65 Y97.5 E48.62298
G1 X108.65 Y68.1 E49.60082
G1 X49.85 Y68.1 E51.55652
G1 X49.85 Y142.25 E54.02276
G1 X59.5 Y151.9 E54.47667
G1 X99 Y151.9 E55.79044
G0 F6000 X99.166 Y152.3
;TYPE:WALL-OUTER
G1 F1200 X109.05 Y142.416 E56.25535
G1 X109.05 Y97.5 E57.74927
G1 X109.05 Y67.7 E58.74042
G1 X49.45 Y67.7 E60.72272
G1 X49.45 Y142.416 E63.20779
G1 X59.334 Y152.3 E63.6727
G1 X99.166 Y152.3 E64.99752
G0 F6000 X98.85 Y151.54
;TYPE:SKIN
G1 F1200 X108.29 Y142.1 E65.44155
G1 X108.29 Y122.5 E66.09345
G1 X108.29 Y68.46 E67.89082
G1 X50.21 Y68.46 E69.82257
G1 X50.21 Y142.1 E72.27185
G1 X59.65 Y151.54 E72.71588
G1 X98.85 Y151.54 E74.01967
G1 F1500 E67.51967
G0 F6000 X99.033 Y151.724
G0 X59.568 Y151.736
G0 X50.045 Y142.302
G1 F1500 E74.01967
G0 F6000 X50.41 Y141.485
G1 F1200 X60.263 Y151.339 E74.48315
G0 F6000 X60.829 Y151.339
G1 F1200 X50.41 Y140.92 E74.97323
G0 F6000 X50.41 Y140.354
G1 F1200 X61.395 Y151.339 E75.48993
G0 F6000 X61.96 Y151.339
G1 F1200 X50.41 Y139.788 E76.03323
G0 F6000 X50.41 Y139.222
G1 F1200 X62.526 Y151.339 E76.60315
G0 F6000 X63.092 Y151.339
G1 F1200 X50.41 Y138.657 E77.19968
G0 F6000 X50.41 Y138.091
G1 F1200 X63.657 Y151.339 E77.8228
G0 F6000 X64.223 Y151.339
G1 F1200 X50.41 Y137.525 E78.47254
G0 F6000 X50.41 Y136.96
G1 F1200 X64.789 Y151.339 E79.14889
G0 F6000 X65.355 Y151.339
G1 F1200 X50.41 Y136.394 E79.85185
G0 F6000 X50.41 Y135.828
G1 F1200 X65.92 Y151.339 E80.58142
G0 F6000 X66.486 Y151.339
G1 F1200 X50.41 Y135.263 E81.33759
G0 F6000 X50.41 Y134.697
G1 F1200 X67.052 Y151.339 E82.12037
G0 F6000 X67.617 Y151.339
G1 F1200 X50.41 Y134.131 E82.92976
G0 F6000 X50.41 Y133.566
G1 F1200 X68.183 Y151.339 E83.76575
G0 F6000 X68.749 Y151.339
G1 F1200 X50.41 Y133 E84.62836
G0 F6000 X50.41 Y132.434
G1 F1200 X69.314 Y151.339 E85.51757
G0 F6000 X69.88 Y151.339
G1 F1200 X50.41 Y131.869 E86.43338
G0 F6000 X50.41 Y131.303
G1 F1200 X70.446 Y151.339 E87.37581
G0 F6000 X71.011 Y151.339
G1 F1200 X50.41 Y130.737 E88.34484
G0 F6000 X50.41 Y130.171
G1 F1200 X71.577 Y151.339 E89.3405
G0 F6000 X72.143 Y151.339
G1 F1200 X50.41 Y129.606 E90.36275
G0 F6000 X50.41 Y129.04
G1 F1200 X72.708 Y151.339 E91.4116
G0 F6000 X73.274 Y151.339
G1 F1200 X50.41 Y128.474 E92.48708
G0 F6000 X50.41 Y127.909
G1 F1200 X73.84 Y151.339 E93.58916
G0 F6000 X74.406 Y151.339
G1 F1200 X50.41 Y127.343 E94.71785
G0 F6000 X50.41 Y126.777
G1 F1200 X74.971 Y151.339 E95.87315
G0 F6000 X75.537 Y151.339
G1 F1200 X50.41 Y126.212 E97.05505
G0 F6000 X50.41 Y125.646
G1 F1200 X76.103 Y151.339 E98.26357
G0 F6000 X76.668 Y151.339
G1 F1200 X50.41 Y125.08 E99.49869
G0 F6000 X50.41 Y124.515
G1 F1200 X77.234 Y151.339 E100.76041
G0 F6000 X77.8 Y151.339
G1 F1200 X50.41 Y123.949 E102.04875
G0 F6000 X50.41 Y123.383
G1 F1200 X78.365 Y151.339 E103.36369
G0 F6000 X78.931 Y151.339
G1 F1200 X50.41 Y122.818 E104.70523
G0 F6000 X50.41 Y122.252
G1 F1200 X79.497 Y151.339 E106.07339
G0 F6000 X80.062 Y151.339
G1 F1200 X50.41 Y121.686 E107.46816
G0 F6000 X50.41 Y121.121
G1 F1200 X80.628 Y151.339 E108.88952
G0 F6000 X81.194 Y151.339
G1 F1200 X50.41 Y120.555 E110.3375
G0 F6000 X50.41 Y119.989
G1 F1200 X81.759 Y151.339 E111.81209
G0 F6000 X82.325 Y151.339
G1 F1200 X50.41 Y119.423 E113.31329
G0 F6000 X50.41 Y118.858
G1 F1200 X82.891 Y151.339 E114.8411
G0 F6000 X83.456 Y151.339
G1 F1200 X50.41 Y118.292 E116.39551
G0 F6000 X50.41 Y117.726
G1 F1200 X84.022 Y151.339 E117.97654
G0 F6000 X84.588 Y151.339
G1 F1200 X50.41 Y117.161 E119.58416
G0 F6000 X50.41 Y116.595
G1 F1200 X85.154 Y151.339 E121.21841
G0 F6000 X85.719 Y151.339
G1 F1200 X50.41 Y116.029 E122.87927
G0 F6000 X50.41 Y115.464
G1 F1200 X86.285 Y151.339 E124.56672
G0 F6000 X86.851 Y151.339
G1 F1200 X50.41 Y114.898 E126.28079
G0 F6000 X50.41 Y114.332
G1 F1200 X87.416 Y151.339 E128.02146
G0 F6000 X87.982 Y151.339
G1 F1200 X50.41 Y113.767 E129.78873
G0 F6000 X50.41 Y113.201
G1 F1200 X88.548 Y151.339 E131.58263
G0 F6000 X89.113 Y151.339
G1 F1200 X50.41 Y112.635 E133.40312
G0 F6000 X50.41 Y112.07
G1 F1200 X89.679 Y151.339 E135.25021
G0 F6000 X90.245 Y151.339
G1 F1200 X50.41 Y111.504 E137.12393
G0 F6000 X50.41 Y110.938
G1 F1200 X90.81 Y151.339 E139.02425
G0 F6000 X91.376 Y151.339
G1 F1200 X50.41 Y110.373 E140.95116
G0 F6000 X50.41 Y109.807
G1 F1200 X91.942 Y151.339 E142.9047
G0 F6000 X92.507 Y151.339
G1 F1200 X50.41 Y109.241 E144.88484
G0 F6000 X50.41 Y108.675
G1 F1200 X93.073 Y151.339 E146.8916
G0 F6000 X93.639 Y151.339
G1 F1200 X50.41 Y108.11 E148.92496
G0 F6000 X50.41 Y107.544
G1 F1200 X94.205 Y151.339 E150.98494
G0 F6000 X94.77 Y151.339
G1 F1200 X50.41 Y106.978 E153.07152
G0 F6000 X50.41 Y106.413
G1 F1200 X95.336 Y151.339 E155.1847
G0 F6000 X95.902 Y151.339
G1 F1200 X50.41 Y105.847 E157.32451
G0 F6000 X50.41 Y105.281
G1 F1200 X96.467 Y151.339 E159.49091
G0 F6000 X97.033 Y151.339
G1 F1200 X50.41 Y104.716 E161.68391
G0 F6000 X50.41 Y104.15
G1 F1200 X97.599 Y151.339 E163.90354
G0 F6000 X98.164 Y151.339
G1 F1200 X50.41 Y103.584 E166.14976
G0 F6000 X50.41 Y103.019
G1 F1200 X98.73 Y151.339 E168.42259
G0 F6000 X99.031 Y151.074
G1 F1200 X50.41 Y102.453 E170.70957
G0 F6000 X50.41 Y101.887
G1 F1200 X99.314 Y150.791 E173.00987
G0 F6000 X99.597 Y150.509
G1 F1200 X50.41 Y101.322 E175.32347
G0 F6000 X50.41 Y100.756
G1 F1200 X99.88 Y150.226 E177.65039
G0 F6000 X100.163 Y149.943
G1 F1200 X50.41 Y100.19 E179.99062
G0 F6000 X50.41 Y99.624
G1 F1200 X100.445 Y149.66 E182.34413
G0 F6000 X100.728 Y149.377
G1 F1200 X50.41 Y99.059 E184.71094
G0 F6000 X50.41 Y98.493
G1 F1200 X101.011 Y149.094 E187.09105
G0 F6000 X101.294 Y148.812
G1 F1200 X50.41 Y97.927 E189.4845
G0 F6000 X50.41 Y97.362
G1 F1200 X101.577 Y148.529 E191.89124
G0 F6000 X101.86 Y148.246
G1 F1200 X50.41 Y96.796 E194.31129
G0 F6000 X50.41 Y96.23
G1 F1200 X102.142 Y147.963 E196.74463
G0 F6000 X102.425 Y147.68
G1 F1200 X50.41 Y95.665 E199.19126
G0 F6000 X50.41 Y95.099
