;FLAVOR:Marlin
;TIME:11080
;Filament used: 5.87681m
;Layer height: 0.2
;MINX:54
;MINY:39
;MINZ:0.2
;MAXX:166
;MAXY:181
;MAXZ:5.2
;Generated with Cura_SteamEngine 5.2.1
M82 ;absolute extrusion mode
; Ender 3 Custom Start G-code
G92 E0 ; Reset Extruder
G28 ; Home all axes
M104 S175 ; Start heating up the nozzle most of the way
M190 S70 ; Start heating the bed, wait until target temperature reached
M109 S210.0 ; Finish heating the nozzle
G1 Z2.0 F3000 ; Move Z Axis up little to prevent scratching of Heat Bed
G1 X0.1 Y20 Z0.3 F5000.0 ; Move to start position
G1 X0.1 Y200.0 Z0.3 F1500.0 E15 ; Draw the first line
G1 X0.4 Y200.0 Z0.3 F5000.0 ; Move to side a little
G1 X0.4 Y20 Z0.3 F1500.0 E30 ; Draw the second line
G92 E0 ; Reset Extruder
G1 Z2.0 F3000 ; Move Z Axis up little to prevent scratching of Heat Bed
G1 X5 Y20 Z0.3 F5000.0 ; Move over to prevent blob squish
G92 E0
G92 E0
G1 F1500 E-6.5
;LAYER_COUNT:25
;LAYER:0
M107
G1 F300 Z0.4
G0 F6000 X75.501 Y44.479 Z0.4
;TYPE:SKIRT
G1 F300 Z0.2
G1 F1500 E0
G1 F1200 X76.007 Y43.689 E0.0312
G1 X76.578 Y42.945 E0.0624
G1 X77.21 Y42.252 E0.09359
G1 X77.899 Y41.616 E0.12478
G1 X78.64 Y41.041 E0.15597
G1 X79.427 Y40.531 E0.18717
G1 X80.255 Y40.09 E0.21837
G1 X81.117 Y39.721 E0.24955
G1 X82.008 Y39.427 E0.28076
G1 X82.92 Y39.209 E0.31195
G1 X83.847 Y39.071 E0.34312
G1 X84.701 Y39.013 E0.37159
G1 X85.33 Y39 E0.39251
G1 X134.451 Y39.001 E2.02629
G1 X135.149 Y39.011 E2.0495
G1 X136.085 Y39.065 E2.08069
G1 X137.013 Y39.197 E2.11186
G1 X137.927 Y39.409 E2.14307
G1 X138.819 Y39.698 E2.17426
G1 X139.684 Y40.061 E2.20546
G1 X140.514 Y40.497 E2.23664
G1 X141.305 Y41.002 E2.26785
G1 X142.049 Y41.573 E2.29905
G1 X142.742 Y42.205 E2.33024
G1 X143.379 Y42.893 E2.36143
G1 X143.954 Y43.634 E2.39262
G1 X144.465 Y44.42 E2.4238
G1 X144.907 Y45.248 E2.45502
G1 X145.276 Y46.11 E2.48621
G1 X145.571 Y47 E2.51739
G1 X145.789 Y47.912 E2.54858
G1 X145.929 Y48.84 E2.5798
G1 X145.987 Y49.701 E2.6085
G1 X146 Y50.33 E2.62942
G1 X146 Y104.927 E4.44533
G1 X146.037 Y107.535 E4.53208
G1 X146.144 Y110.056 E4.616
G1 X146.321 Y112.551 E4.69919
G1 X146.569 Y115.051 E4.78275
G1 X146.888 Y117.544 E4.86635
G1 X147.279 Y120.037 E4.95028
G1 X147.742 Y122.527 E5.03451
G1 X148.272 Y124.991 E5.11834
G1 X148.861 Y127.393 E5.2006
G1 X149.537 Y129.849 E5.28532
G1 X150.275 Y132.259 E5.36916
G1 X151.082 Y134.651 E5.45312
G1 X151.945 Y136.991 E5.53607
G1 X152.891 Y139.347 E5.62051
G1 X153.891 Y141.645 E5.70387
G1 X154.96 Y143.926 E5.78765
G1 X156.103 Y146.196 E5.87219
G1 X157.288 Y148.389 E5.95509
G1 X158.546 Y150.572 E6.03889
G1 X159.861 Y152.709 E6.12235
G1 X161.233 Y154.805 E6.20567
G1 X162.683 Y156.886 E6.29003
G1 X163.399 Y157.856 E6.33013
G1 X163.913 Y158.569 E6.35936
G1 X164.429 Y159.353 E6.39058
G1 X164.876 Y160.177 E6.42176
G1 X165.251 Y161.037 E6.45296
G1 X165.551 Y161.925 E6.48414
G1 X165.775 Y162.836 E6.51534
G1 X165.92 Y163.763 E6.54655
G1 X165.985 Y164.667 E6.57669
G1 X166 Y165.33 E6.59875
G1 X165.999 Y169.415 E6.73462
G1 X165.989 Y170.142 E6.7588
G1 X165.936 Y171.079 E6.79001
G1 X165.804 Y172.007 E6.82119
G1 X165.593 Y172.921 E6.85239
G1 X165.304 Y173.813 E6.88358
G1 X164.941 Y174.678 E6.91478
G1 X164.506 Y175.509 E6.94597
G1 X164.001 Y176.299 E6.97716
G1 X163.431 Y177.044 E7.00836
G1 X162.8 Y177.738 E7.03955
G1 X162.111 Y178.375 E7.07076
G1 X161.371 Y178.951 E7.10195
G1 X160.585 Y179.462 E7.13314
G1 X159.758 Y179.904 E7.16432
G1 X158.896 Y180.274 E7.19552
G1 X158.006 Y180.569 E7.22671
G1 X157.094 Y180.788 E7.2579
G1 X156.167 Y180.928 E7.28909
G1 X155.299 Y180.987 E7.31802
G1 X154.67 Y181 E7.33895
G1 X65.565 Y180.999 E10.30259
G1 X64.867 Y180.99 E10.32581
G1 X63.931 Y180.938 E10.35699
G1 X63.002 Y180.806 E10.3882
G1 X62.088 Y180.596 E10.41939
G1 X61.195 Y180.309 E10.45059
G1 X60.33 Y179.946 E10.48179
G1 X59.499 Y179.512 E10.51297
G1 X58.708 Y179.008 E10.54416
G1 X57.963 Y178.438 E10.57536
G1 X57.269 Y177.807 E10.60656
G1 X56.632 Y177.12 E10.63772
G1 X56.055 Y176.38 E10.66893
G1 X55.543 Y175.594 E10.70013
G1 X55.1 Y174.767 E10.73134
G1 X54.729 Y173.906 E10.76252
G1 X54.433 Y173.016 E10.79371
G1 X54.214 Y172.104 E10.82491
G1 X54.073 Y171.177 E10.8561
G1 X54.013 Y170.288 E10.88573
G1 X54 Y169.658 E10.90669
G1 X54.001 Y165.514 E11.04452
G1 X54.011 Y164.839 E11.06697
G1 X54.065 Y163.903 E11.09816
G1 X54.198 Y162.974 E11.12937
G1 X54.411 Y162.061 E11.16055
G1 X54.7 Y161.169 E11.19174
G1 X55.064 Y160.304 E11.22295
G1 X55.5 Y159.474 E11.25413
G1 X56.169 Y158.457 E11.29462
G1 X56.546 Y157.947 E11.31572
G1 X58.043 Y155.862 E11.40109
G1 X59.466 Y153.753 E11.48571
G1 X60.799 Y151.653 E11.56844
G1 X62.103 Y149.464 E11.65318
G1 X63.319 Y147.284 E11.73621
G1 X64.479 Y145.06 E11.81963
G1 X65.593 Y142.77 E11.90433
G1 X66.619 Y140.498 E11.98725
G1 X67.589 Y138.175 E12.07098
G1 X68.508 Y135.789 E12.15602
G1 X69.338 Y133.436 E12.23901
G1 X70.101 Y131.062 E12.32194
G1 X70.809 Y128.628 E12.40625
G1 X71.439 Y126.204 E12.48956
G1 X72.005 Y123.743 E12.57355
G1 X72.503 Y121.255 E12.65794
G1 X72.924 Y118.803 E12.74069
G1 X73.281 Y116.291 E12.82507
G1 X73.566 Y113.783 E12.90903
G1 X73.775 Y111.318 E12.99131
G1 X73.916 Y108.822 E13.07446
G1 X74 Y104.856 E13.2064
G1 X74.001 Y50.509 E15.01399
G1 X74.011 Y49.844 E15.03611
G1 X74.065 Y48.907 E15.06732
G1 X74.199 Y47.979 E15.09851
G1 X74.411 Y47.065 E15.12971
G1 X74.7 Y46.173 E15.1609
G1 X75.065 Y45.309 E15.1921
G1 X75.501 Y44.479 E15.22328
G0 F6000 X75.898 Y44.593
G1 F1200 X76.403 Y43.822 E15.25393
G1 X76.972 Y43.099 E15.28454
G1 X77.602 Y42.427 E15.31517
G1 X78.288 Y41.813 E15.34579
G1 X79.024 Y41.261 E15.37639
G1 X79.806 Y40.774 E15.40703
G1 X80.627 Y40.358 E15.43765
G1 X81.481 Y40.014 E15.46827
G1 X82.361 Y39.745 E15.49887
G1 X83.262 Y39.554 E15.52951
G1 X84.176 Y39.442 E15.56013
G1 X84.712 Y39.413 E15.57799
G1 X85.33 Y39.4 E15.59855
G1 X134.293 Y39.4 E17.22706
G1 X135.143 Y39.411 E17.25534
G1 X136.062 Y39.464 E17.28595
G1 X136.973 Y39.597 E17.31657
G1 X137.869 Y39.808 E17.34719
G1 X138.743 Y40.096 E17.3778
G1 X139.59 Y40.459 E17.40845
G1 X140.401 Y40.894 E17.43906
G1 X141.171 Y41.398 E17.46966
G1 X141.895 Y41.967 E17.50029
G1 X142.567 Y42.597 E17.53093
G1 X143.182 Y43.282 E17.56155
G1 X143.735 Y44.018 E17.59217
G1 X144.222 Y44.799 E17.62278
G1 X144.639 Y45.62 E17.65341
G1 X144.984 Y46.474 E17.68404
G1 X145.253 Y47.354 E17.71465
G1 X145.445 Y48.255 E17.74529
G1 X145.558 Y49.168 E17.77588
G1 X145.587 Y49.712 E17.794
G1 X145.6 Y50.33 E17.81456
G1 X145.6 Y104.933 E19.63067
G1 X145.637 Y107.558 E19.71798
G1 X145.744 Y110.066 E19.80147
G1 X145.922 Y112.586 E19.8855
G1 X146.171 Y115.101 E19.96956
G1 X146.49 Y117.59 E20.05302
G1 X146.891 Y120.142 E20.13894
G1 X147.343 Y122.573 E20.22118
G1 X147.879 Y125.065 E20.30596
G1 X148.481 Y127.522 E20.3901
G1 X149.154 Y129.967 E20.47444
G1 X149.889 Y132.367 E20.55793
G1 X150.703 Y134.781 E20.64266
G1 X151.57 Y137.131 E20.72597
G1 X152.529 Y139.519 E20.81156
G1 X153.52 Y141.796 E20.89416
G1 X154.612 Y144.125 E20.97971
G1 X155.737 Y146.36 E21.06293
G1 X156.932 Y148.573 E21.14658
G1 X158.193 Y150.76 E21.23055
G1 X159.545 Y152.957 E21.31635
G1 X160.913 Y155.047 E21.39943
G1 X162.348 Y157.107 E21.48293
G1 X163.075 Y158.09 E21.5236
G1 X163.589 Y158.803 E21.55283
G1 X164.094 Y159.573 E21.58346
G1 X164.531 Y160.383 E21.61407
G1 X164.896 Y161.229 E21.64471
G1 X165.186 Y162.102 E21.67531
G1 X165.399 Y162.998 E21.70594
G1 X165.533 Y163.909 E21.73657
G1 X165.585 Y164.679 E21.76224
G1 X165.6 Y165.33 E21.78389
G1 X165.599 Y169.41 E21.9196
G1 X165.589 Y170.137 E21.94378
G1 X165.536 Y171.056 E21.97439
G1 X165.404 Y171.967 E22.00501
G1 X165.193 Y172.863 E22.03563
G1 X164.906 Y173.738 E22.06626
G1 X164.543 Y174.584 E22.09687
G1 X164.109 Y175.396 E22.1275
G1 X163.605 Y176.167 E22.15813
G1 X163.037 Y176.891 E22.18874
G1 X162.408 Y177.563 E22.21935
G1 X161.723 Y178.178 E22.24997
G1 X160.987 Y178.731 E22.28059
G1 X160.206 Y179.219 E22.31122
G1 X159.386 Y179.637 E22.34183
G1 X158.532 Y179.982 E22.37247
G1 X157.652 Y180.251 E22.40308
G1 X156.751 Y180.444 E22.43372
G1 X155.838 Y180.557 E22.46432
G1 X155.288 Y180.587 E22.48264
G1 X154.67 Y180.6 E22.5032
G1 X65.57 Y180.599 E25.46668
G1 X64.872 Y180.59 E25.4899
G1 X63.953 Y180.538 E25.52051
G1 X63.042 Y180.407 E25.55112
G1 X62.146 Y180.197 E25.58173
G1 X61.271 Y179.91 E25.61236
G1 X60.424 Y179.548 E25.643
G1 X59.612 Y179.114 E25.67362
G1 X58.841 Y178.612 E25.70422
G1 X58.116 Y178.044 E25.73485
G1 X57.443 Y177.415 E25.76549
G1 X56.828 Y176.731 E25.79608
G1 X56.274 Y175.996 E25.8267
G1 X55.786 Y175.215 E25.85733
G1 X55.367 Y174.395 E25.88795
G1 X55.021 Y173.542 E25.91857
G1 X54.751 Y172.662 E25.94919
G1 X54.558 Y171.761 E25.97983
G1 X54.444 Y170.848 E26.01043
G1 X54.413 Y170.277 E26.02945
G1 X54.4 Y169.658 E26.05005
G1 X54.401 Y165.52 E26.18768
G1 X54.411 Y164.845 E26.21013
G1 X54.465 Y163.926 E26.24075
G1 X54.598 Y163.015 E26.27137
G1 X54.81 Y162.119 E26.30199
G1 X55.098 Y161.245 E26.3326
G1 X55.462 Y160.399 E26.36323
G1 X55.897 Y159.588 E26.39384
G1 X56.49 Y158.695 E26.4295
G1 X56.881 Y158.167 E26.45135
G1 X58.366 Y156.097 E26.53608
G1 X59.797 Y153.978 E26.62112
G1 X61.153 Y151.842 E26.70527
G1 X62.438 Y149.684 E26.78881
G1 X63.665 Y147.485 E26.87257
G1 X64.85 Y145.213 E26.95779
G1 X65.94 Y142.973 E27.04065
G1 X66.994 Y140.637 E27.12589
G1 X67.973 Y138.294 E27.21034
G1 X68.872 Y135.96 E27.29353
G1 X69.721 Y133.554 E27.37839
G1 X70.483 Y131.181 E27.46129
G1 X71.191 Y128.744 E27.5457
G1 X71.832 Y126.281 E27.63034
G1 X72.392 Y123.847 E27.71341
G1 X72.897 Y121.324 E27.79899
G1 X73.32 Y118.861 E27.88211
G1 X73.683 Y116.302 E27.96808
G1 X73.959 Y113.864 E28.04968
G1 X74.178 Y111.304 E28.13514
G1 X74.316 Y108.852 E28.21682
G1 X74.4 Y104.862 E28.34956
G1 X74.401 Y50.515 E30.15715
G1 X74.411 Y49.85 E30.17927
G1 X74.465 Y48.931 E30.20989
G1 X74.598 Y48.02 E30.24051
G1 X74.81 Y47.124 E30.27113
G1 X75.099 Y46.249 E30.30178
G1 X75.463 Y45.404 E30.33238
G1 X75.898 Y44.593 E30.36299
G0 F6000 X76.295 Y44.709
G1 F1200 X76.798 Y43.958 E30.39306
G1 X77.366 Y43.256 E30.42309
G1 X77.993 Y42.606 E30.45313
G1 X78.675 Y42.014 E30.48317
G1 X79.407 Y41.485 E30.5132
G1 X80.183 Y41.023 E30.54324
G1 X80.997 Y40.632 E30.57328
G1 X81.842 Y40.313 E30.60332
G1 X82.712 Y40.071 E30.63335
G1 X83.6 Y39.907 E30.66339
G1 X84.723 Y39.813 E30.70087
G1 X85.33 Y39.8 E30.72106
G1 X134.293 Y39.8 E32.34958
G1 X135.137 Y39.811 E32.37765
G1 X136.039 Y39.864 E32.40771
G1 X136.932 Y39.996 E32.43773
G1 X137.81 Y40.207 E32.46776
G1 X138.666 Y40.495 E32.4978
G1 X139.493 Y40.857 E32.52783
G1 X140.285 Y41.292 E32.55788
G1 X141.036 Y41.794 E32.58793
G1 X141.739 Y42.361 E32.61797
G1 X142.389 Y42.988 E32.648
G1 X142.981 Y43.67 E32.67804
G1 X143.511 Y44.401 E32.70807
G1 X143.973 Y45.177 E32.73811
G1 X144.366 Y45.99 E32.76814
G1 X144.684 Y46.835 E32.79817
G1 X144.927 Y47.705 E32.82822
G1 X145.092 Y48.593 E32.85826
G1 X145.187 Y49.723 E32.89597
G1 X145.2 Y50.33 E32.91617
G1 X145.2 Y104.939 E34.73247
G1 X145.237 Y107.545 E34.81916
G1 X145.346 Y110.11 E34.90454
G1 X145.524 Y112.617 E34.98814
G1 X145.775 Y115.158 E35.07306
G1 X146.096 Y117.666 E35.15716
G1 X146.49 Y120.171 E35.2415
G1 X146.952 Y122.658 E35.32563
G1 X147.493 Y125.172 E35.41116
G1 X148.092 Y127.618 E35.49492
G1 X148.765 Y130.062 E35.57924
G1 X149.51 Y132.497 E35.66393
G1 X150.321 Y134.899 E35.74825
G1 X151.211 Y137.312 E35.83379
G1 X152.137 Y139.619 E35.91647
G1 X153.169 Y141.99 E36.00248
G1 X154.25 Y144.296 E36.08719
G1 X155.379 Y146.538 E36.17068
G1 X156.599 Y148.796 E36.25604
G1 X157.849 Y150.964 E36.33928
G1 X159.187 Y153.139 E36.42421
G1 X160.583 Y155.272 E36.509
G1 X162.027 Y157.344 E36.593
G1 X162.75 Y158.324 E36.6335
G1 X163.264 Y159.037 E36.66273
G1 X163.759 Y159.792 E36.69276
G1 X164.186 Y160.589 E36.72284
G1 X164.54 Y161.419 E36.75285
G1 X164.82 Y162.278 E36.7829
G1 X165.022 Y163.158 E36.81293
G1 X165.146 Y164.053 E36.84298
G1 X165.185 Y164.691 E36.86424
G1 X165.2 Y165.33 E36.8855
G1 X165.199 Y169.404 E37.021
G1 X165.189 Y170.131 E37.04518
G1 X165.137 Y171.033 E37.07523
G1 X165.005 Y171.926 E37.10526
G1 X164.794 Y172.805 E37.13532
G1 X164.507 Y173.661 E37.16535
G1 X164.145 Y174.488 E37.19538
G1 X163.711 Y175.28 E37.22541
G1 X163.209 Y176.031 E37.25546
G1 X162.643 Y176.734 E37.28548
G1 X162.016 Y177.385 E37.31554
G1 X161.335 Y177.977 E37.34555
G1 X160.604 Y178.507 E37.37558
G1 X159.828 Y178.97 E37.40564
G1 X159.015 Y179.363 E37.43567
G1 X158.17 Y179.683 E37.46572
G1 X157.301 Y179.926 E37.49574
G1 X156.413 Y180.091 E37.52578
G1 X155.277 Y180.187 E37.5637
G1 X154.67 Y180.2 E37.58389
G1 X65.575 Y180.199 E40.5472
G1 X64.877 Y180.19 E40.57042
G1 X63.976 Y180.139 E40.60043
G1 X63.082 Y180.007 E40.63049
G1 X62.204 Y179.798 E40.66051
G1 X61.347 Y179.511 E40.69057
G1 X60.52 Y179.15 E40.72058
G1 X59.727 Y178.717 E40.75063
G1 X58.976 Y178.216 E40.78066
G1 X58.272 Y177.65 E40.8107
G1 X57.621 Y177.024 E40.84074
G1 X57.028 Y176.343 E40.87078
G1 X56.498 Y175.612 E40.90081
G1 X56.034 Y174.837 E40.93085
G1 X55.64 Y174.024 E40.9609
G1 X55.32 Y173.18 E40.99092
G1 X55.076 Y172.31 E41.02097
G1 X54.91 Y171.422 E41.05102
G1 X54.813 Y170.267 E41.08957
G1 X54.8 Y169.658 E41.10983
G1 X54.801 Y165.526 E41.24726
G1 X54.811 Y164.851 E41.26971
G1 X54.864 Y163.949 E41.29977
G1 X54.997 Y163.056 E41.3298
G1 X55.209 Y162.178 E41.35984
G1 X55.497 Y161.322 E41.38988
G1 X55.86 Y160.495 E41.41992
G1 X56.294 Y159.703 E41.44995
G1 X56.812 Y158.933 E41.48082
G1 X57.184 Y158.431 E41.5016
G1 X58.707 Y156.308 E41.5885
G1 X60.123 Y154.211 E41.67266
G1 X61.491 Y152.055 E41.75759
G1 X62.781 Y149.889 E41.84144
G1 X64.026 Y147.659 E41.92638
G1 X65.207 Y145.394 E42.01134
G1 X66.306 Y143.134 E42.09493
G1 X67.351 Y140.82 E42.17938
G1 X68.339 Y138.455 E42.26462
G1 X69.262 Y136.057 E42.35009
G1 X70.081 Y133.736 E42.43195
G1 X70.874 Y131.268 E42.51817
G1 X71.577 Y128.852 E42.60186
G1 X72.221 Y126.374 E42.68701
G1 X72.79 Y123.902 E42.77138
G1 X73.291 Y121.399 E42.85628
G1 X73.717 Y118.914 E42.94014
G1 X74.071 Y116.426 E43.02372
G1 X74.361 Y113.872 E43.10922
G1 X74.575 Y111.359 E43.1931
G1 X74.716 Y108.855 E43.27652
G1 X74.8 Y104.868 E43.40915
G1 X74.801 Y50.521 E45.21674
G1 X74.811 Y49.856 E45.23886
G1 X74.865 Y48.954 E45.26892
G1 X74.998 Y48.061 E45.29895
G1 X75.209 Y47.183 E45.32898
G1 X75.498 Y46.327 E45.35903
G1 X75.861 Y45.5 E45.38907
G1 X76.295 Y44.709 E45.41908
G1 F1500 E38.91908
G1 F300 Z0.4
;MESH:Body1.stl
G0 F6000 X107.71 Y58.466 Z0.4
;TYPE:WALL-INNER
G1 F300 Z0.2
G1 F1500 E45.41908
G1 F1200 X107.45 Y58.6 E45.42881
G1 X103.816 Y58.598 E45.54967
G1 X103.582 Y58.528 E45.5578
G1 X103.388 Y58.361 E45.56631
G1 X101.7 Y55.447 E45.67832
G1 X100.012 Y58.361 E45.79033
G1 X99.91 Y58.466 E45.79519
G1 X99.65 Y58.6 E45.80492
G1 X96.016 Y58.598 E45.92579
G1 X95.782 Y58.528 E45.93391
G1 X95.588 Y58.361 E45.94243
G1 X93.9 Y55.447 E46.05443
G1 X92.212 Y58.361 E46.16644
G1 X92.11 Y58.466 E46.17131
G1 X91.85 Y58.6 E46.18104
G1 X88.216 Y58.598 E46.30191
G1 X87.995 Y58.535 E46.30955
G1 X87.749 Y58.301 E46.32084
G1 F1212.1 X86.018 Y55.299 E46.43495
G1 F1263.2 X85.951 Y55 E46.44463
G1 F1250 X86.015 Y54.699 E46.45445
G1 F1200 X87.749 Y51.699 E46.5697
G1 X88.165 Y51.408 E46.58659
G1 X88.269 Y51.4 E46.59006
G1 X91.731 Y51.4 E46.7052
G1 X92.251 Y51.699 E46.72515
G1 X93.9 Y54.553 E46.83478
G1 X95.549 Y51.699 E46.94441
G1 X95.976 Y51.4 E46.96175
G1 X99.531 Y51.4 E47.07999
G1 X100.051 Y51.699 E47.09994
G1 X101.7 Y54.553 E47.20957
G1 X103.349 Y51.699 E47.3192
G1 X103.776 Y51.4 E47.33654
G1 X107.331 Y51.4 E47.45478
G1 X107.851 Y51.699 E47.47473
G1 X109.5 Y54.553 E47.58436
G1 X111.149 Y51.699 E47.69399
G1 X111.576 Y51.4 E47.71133
G1 X115.131 Y51.4 E47.82957
G1 X115.651 Y51.699 E47.84952
G1 X117.3 Y54.553 E47.95915
G1 X118.949 Y51.699 E48.06878
G1 X119.376 Y51.4 E48.08612
G1 X122.931 Y51.4 E48.20436
G1 X123.451 Y51.699 E48.22431
G1 X125.1 Y54.553 E48.33394
G1 X126.749 Y51.699 E48.44357
G1 X127.176 Y51.4 E48.4609
G1 X130.731 Y51.4 E48.57914
G1 X131.251 Y51.699 E48.59909
G1 X132.985 Y54.699 E48.71434
G1 X133.058 Y54.896 E48.72133
G1 X133.058 Y55.104 E48.72825
G1 X132.985 Y55.301 E48.73524
G1 X131.251 Y58.301 E48.85049
G1 X131.116 Y58.462 E48.85747
G1 X130.962 Y58.555 E48.86346
