;FLAVOR:Marlin
;TIME:896
;Filament used: 0.422843m
;Layer height: 0.2
;MINX:82.5
;MINY:91.5
;MINZ:0.2
;MAXX:137.5
;MAXY:128.5
;MAXZ:10.2
;Generated with Cura_SteamEngine 5.2.1
M82 ;absolute extrusion mode
; Ender 3 Custom Start G-code
G92 E0 ; Reset Extruder
G28 ; Home all axes
M104 S175 ; Start heating up the nozzle most of the way
M190 S70 ; Start heating the bed, wait until target temperature reached
M109 S210.0 ; Finish heating the nozzle
G1 Z2.0 F3000 ; Move Z Axis up little to prevent scratching of Heat Bed
G1 X0.1 Y20 Z0.3 F5000.0 ; Move to start position
G1 X0.1 Y200.0 Z0.3 F1500.0 E15 ; Draw the first line
G1 X0.4 Y200.0 Z0.3 F5000.0 ; Move to side a little
G1 X0.4 Y20 Z0.3 F1500.0 E30 ; Draw the second line
G92 E0 ; Reset Extruder
G1 Z2.0 F3000 ; Move Z Axis up little to prevent scratching of Heat Bed
G1 X5 Y20 Z0.3 F5000.0 ; Move over to prevent blob squish
G92 E0
G92 E0
G1 F1500 E-6.5
;LAYER_COUNT:50
;LAYER:0
M107
G1 F300 Z0.4
G0 F6000 X86.386 Y94.127 Z0.4
;TYPE:SKIRT
G1 F300 Z0.2
G1 F1500 E0
G1 F1200 X87.126 Y93.551 E0.03119
G1 X87.912 Y93.039 E0.06239
G1 X88.739 Y92.597 E0.09358
G1 X89.601 Y92.227 E0.12478
G1 X90.491 Y91.931 E0.15597
G1 X91.403 Y91.713 E0.18716
G1 X92.33 Y91.572 E0.21835
G1 X93.201 Y91.513 E0.24738
G1 X93.83 Y91.5 E0.26831
G1 X102.793 Y91.5 E0.56642
G1 X103.655 Y91.511 E0.59509
G1 X104.555 Y91.545 E0.62505
G1 X106.208 Y91.638 E0.68011
G1 X108.756 Y91.709 E0.76489
G1 X111.279 Y91.709 E0.84881
G1 X113.771 Y91.638 E0.93173
G1 X115.909 Y91.525 E1.00294
G1 X116.83 Y91.5 E1.03358
G1 X125.951 Y91.501 E1.33695
G1 X126.649 Y91.511 E1.36016
G1 X127.585 Y91.565 E1.39135
G1 X128.513 Y91.697 E1.42252
G1 X129.427 Y91.909 E1.45373
G1 X130.319 Y92.198 E1.48492
G1 X131.184 Y92.561 E1.51612
G1 X132.014 Y92.997 E1.5473
G1 X132.805 Y93.502 E1.57851
G1 X133.549 Y94.073 E1.60971
G1 X134.242 Y94.705 E1.6409
G1 X134.879 Y95.393 E1.67209
G1 X135.454 Y96.134 E1.70328
G1 X135.965 Y96.92 E1.73446
G1 X136.407 Y97.748 E1.76568
G1 X136.776 Y98.61 E1.79687
G1 X137.071 Y99.5 E1.82805
G1 X137.289 Y100.412 E1.85924
G1 X137.429 Y101.34 E1.89045
G1 X137.487 Y102.201 E1.91916
G1 X137.5 Y102.83 E1.94008
G1 X137.499 Y116.9 E2.40805
G1 X137.49 Y117.627 E2.43223
G1 X137.439 Y118.564 E2.46344
G1 X137.307 Y119.492 E2.49462
G1 X137.098 Y120.406 E2.52581
G1 X136.811 Y121.299 E2.557
G1 X136.449 Y122.165 E2.58822
G1 X136.015 Y122.996 E2.6194
G1 X135.511 Y123.787 E2.6506
G1 X134.942 Y124.532 E2.68178
G1 X134.311 Y125.227 E2.713
G1 X133.624 Y125.865 E2.74418
G1 X132.885 Y126.442 E2.77537
G1 X132.099 Y126.954 E2.80657
G1 X131.273 Y127.397 E2.83774
G1 X130.411 Y127.769 E2.86897
G1 X129.522 Y128.065 E2.90013
G1 X128.61 Y128.285 E2.93133
G1 X127.683 Y128.426 E2.96252
G1 X126.799 Y128.487 E2.99199
G1 X126.17 Y128.5 E3.01292
G1 X117.051 Y128.499 E3.31622
G1 X116.346 Y128.489 E3.33967
G1 X115.446 Y128.455 E3.36962
G1 X113.792 Y128.362 E3.42472
G1 X111.244 Y128.291 E3.5095
G1 X108.721 Y128.291 E3.59342
G1 X106.231 Y128.362 E3.67627
G1 X104.092 Y128.475 E3.74751
G1 X103.17 Y128.5 E3.77819
G1 X94.065 Y128.499 E4.08102
G1 X93.367 Y128.49 E4.10424
G1 X92.431 Y128.438 E4.13542
G1 X91.502 Y128.306 E4.16663
G1 X90.588 Y128.096 E4.19782
G1 X89.695 Y127.809 E4.22902
G1 X88.83 Y127.446 E4.26022
G1 X87.999 Y127.012 E4.2914
G1 X87.208 Y126.508 E4.3226
G1 X86.463 Y125.938 E4.3538
G1 X85.769 Y125.307 E4.38499
G1 X85.132 Y124.62 E4.41615
G1 X84.555 Y123.88 E4.44736
G1 X84.043 Y123.094 E4.47856
G1 X83.6 Y122.267 E4.50977
G1 X83.229 Y121.406 E4.54095
G1 X82.933 Y120.516 E4.57214
G1 X82.714 Y119.604 E4.60334
G1 X82.573 Y118.677 E4.63453
G1 X82.513 Y117.788 E4.66416
G1 X82.5 Y117.158 E4.68512
G1 X82.501 Y103.025 E5.15519
G1 X82.51 Y102.36 E5.17731
G1 X82.563 Y101.424 E5.20849
G1 X82.695 Y100.495 E5.2397
G1 X82.906 Y99.581 E5.2709
G1 X83.194 Y98.689 E5.30207
G1 X83.557 Y97.824 E5.33327
G1 X83.992 Y96.993 E5.36447
G1 X84.496 Y96.203 E5.39564
G1 X85.066 Y95.458 E5.42684
G1 X85.698 Y94.764 E5.45806
G1 X86.386 Y94.127 E5.48924
G0 F6000 X86.774 Y94.323
G1 F1200 X87.51 Y93.77 E5.51986
G1 X88.291 Y93.282 E5.55049
G1 X89.111 Y92.864 E5.5811
G1 X89.965 Y92.519 E5.61174
G1 X90.845 Y92.249 E5.64235
G1 X91.745 Y92.057 E5.67296
G1 X92.659 Y91.943 E5.7036
G1 X93.212 Y91.913 E5.72202
G1 X93.83 Y91.9 E5.74258
G1 X102.793 Y91.9 E6.04069
G1 X103.947 Y91.919 E6.07907
G1 X104.538 Y91.944 E6.09875
G1 X106.208 Y92.038 E6.15438
G1 X108.745 Y92.109 E6.23879
G1 X111.256 Y92.109 E6.32231
G1 X113.845 Y92.035 E6.40846
G1 X115.93 Y91.925 E6.4779
G1 X116.83 Y91.9 E6.50785
G1 X125.945 Y91.901 E6.81101
G1 X126.643 Y91.911 E6.83423
G1 X127.562 Y91.964 E6.86485
G1 X128.473 Y92.097 E6.89547
G1 X129.369 Y92.308 E6.92608
G1 X130.243 Y92.596 E6.95669
G1 X131.09 Y92.959 E6.98734
G1 X131.901 Y93.394 E7.01795
G1 X132.671 Y93.898 E7.04856
G1 X133.395 Y94.467 E7.07918
G1 X134.067 Y95.097 E7.10982
G1 X134.682 Y95.782 E7.14044
G1 X135.235 Y96.518 E7.17106
G1 X135.722 Y97.299 E7.20167
G1 X136.139 Y98.12 E7.2323
G1 X136.484 Y98.974 E7.26293
G1 X136.753 Y99.854 E7.29354
G1 X136.945 Y100.755 E7.32418
G1 X137.058 Y101.668 E7.35478
G1 X137.087 Y102.212 E7.3729
G1 X137.1 Y102.83 E7.39346
G1 X137.099 Y116.895 E7.86126
G1 X137.09 Y117.622 E7.88544
G1 X137.039 Y118.541 E7.91606
G1 X136.908 Y119.453 E7.9467
G1 X136.698 Y120.349 E7.97731
G1 X136.412 Y121.224 E8.00793
G1 X136.051 Y122.071 E8.03855
G1 X135.617 Y122.883 E8.06917
G1 X135.115 Y123.655 E8.0998
G1 X134.547 Y124.38 E8.13043
G1 X133.919 Y125.053 E8.16105
G1 X133.235 Y125.669 E8.19166
G1 X132.5 Y126.223 E8.22228
G1 X131.72 Y126.712 E8.2529
G1 X130.9 Y127.131 E8.28352
G1 X130.047 Y127.477 E8.31414
G1 X129.167 Y127.748 E8.34477
G1 X128.267 Y127.941 E8.37538
G1 X127.353 Y128.056 E8.40602
G1 X126.788 Y128.087 E8.42484
G1 X126.17 Y128.1 E8.4454
G1 X117.057 Y128.099 E8.7485
G1 X116.055 Y128.081 E8.78183
G1 X115.463 Y128.056 E8.80154
G1 X113.792 Y127.962 E8.8572
G1 X111.255 Y127.891 E8.94162
G1 X108.744 Y127.891 E9.02513
G1 X106.157 Y127.965 E9.11121
G1 X104.071 Y128.075 E9.18069
G1 X103.17 Y128.1 E9.21067
G1 X94.07 Y128.099 E9.51334
G1 X93.372 Y128.09 E9.53655
G1 X92.453 Y128.038 E9.56717
G1 X91.542 Y127.907 E9.59778
G1 X90.646 Y127.697 E9.62839
G1 X89.771 Y127.41 E9.65902
G1 X88.924 Y127.048 E9.68965
G1 X88.112 Y126.614 E9.72028
G1 X87.341 Y126.112 E9.75088
G1 X86.616 Y125.544 E9.78151
G1 X85.943 Y124.915 E9.81215
G1 X85.328 Y124.231 E9.84274
G1 X84.774 Y123.496 E9.87335
G1 X84.286 Y122.715 E9.90398
G1 X83.867 Y121.895 E9.93461
G1 X83.521 Y121.042 E9.96523
G1 X83.251 Y120.162 E9.99584
G1 X83.058 Y119.261 E10.02649
G1 X82.944 Y118.348 E10.05709
G1 X82.913 Y117.777 E10.07611
G1 X82.9 Y117.158 E10.09671
G1 X82.901 Y103.031 E10.56657
G1 X82.91 Y102.366 E10.58869
G1 X82.962 Y101.446 E10.61934
G1 X83.094 Y100.535 E10.64996
G1 X83.305 Y99.639 E10.68057
G1 X83.592 Y98.764 E10.7112
G1 X83.955 Y97.918 E10.74182
G1 X84.389 Y97.106 E10.77244
G1 X84.892 Y96.335 E10.80306
G1 X85.461 Y95.611 E10.83369
G1 X86.089 Y94.939 E10.86428
G1 X86.774 Y94.323 E10.89492
G0 F6000 X87.162 Y94.524
G1 F1200 X87.894 Y93.994 E10.92498
G1 X88.669 Y93.531 E10.955
G1 X89.482 Y93.138 E10.98504
G1 X90.327 Y92.818 E11.01509
G1 X91.196 Y92.575 E11.0451
G1 X92.084 Y92.409 E11.07515
G1 X93.223 Y92.313 E11.11317
G1 X93.83 Y92.3 E11.13336
G1 X102.793 Y92.3 E11.43147
G1 X103.93 Y92.319 E11.46929
G1 X104.668 Y92.351 E11.49386
G1 X106.211 Y92.438 E11.54526
G1 X108.734 Y92.509 E11.62921
G1 X111.268 Y92.509 E11.71349
G1 X113.835 Y92.435 E11.79891
G1 X115.951 Y92.324 E11.86938
G1 X116.533 Y92.304 E11.88875
G1 X125.939 Y92.301 E12.2016
G1 X126.637 Y92.311 E12.22481
G1 X127.539 Y92.364 E12.25487
G1 X128.432 Y92.496 E12.28489
G1 X129.31 Y92.707 E12.31492
G1 X130.166 Y92.995 E12.34496
G1 X130.993 Y93.357 E12.37499
G1 X131.785 Y93.792 E12.40504
G1 X132.536 Y94.294 E12.43509
G1 X133.239 Y94.861 E12.46513
G1 X133.889 Y95.488 E12.49517
G1 X134.481 Y96.17 E12.5252
G1 X135.011 Y96.901 E12.55523
G1 X135.473 Y97.677 E12.58527
G1 X135.866 Y98.49 E12.61531
G1 X136.184 Y99.335 E12.64533
G1 X136.427 Y100.205 E12.67538
G1 X136.592 Y101.093 E12.70542
G1 X136.687 Y102.223 E12.74314
G1 X136.7 Y102.83 E12.76333
G1 X136.699 Y116.89 E13.23097
G1 X136.69 Y117.617 E13.25515
G1 X136.639 Y118.519 E13.2852
G1 X136.508 Y119.413 E13.31525
G1 X136.299 Y120.291 E13.34527
G1 X136.013 Y121.148 E13.37532
G1 X135.652 Y121.976 E13.40536
G1 X135.22 Y122.768 E13.43537
G1 X134.719 Y123.52 E13.46542
G1 X134.153 Y124.224 E13.49546
G1 X133.528 Y124.875 E13.52548
G1 X132.847 Y125.469 E13.55554
G1 X132.116 Y126 E13.58559
G1 X131.342 Y126.464 E13.6156
G1 X130.529 Y126.858 E13.64565
G1 X129.685 Y127.178 E13.67567
G1 X128.815 Y127.423 E13.70573
G1 X127.928 Y127.589 E13.73575
G1 X126.777 Y127.687 E13.77417
G1 X126.17 Y127.7 E13.79436
G1 X117.062 Y127.699 E14.09729
G1 X116.072 Y127.681 E14.13023
G1 X115.332 Y127.649 E14.15486
G1 X113.789 Y127.562 E14.20627
G1 X111.266 Y127.491 E14.29021
G1 X108.733 Y127.491 E14.37446
G1 X106.166 Y127.565 E14.45988
G1 X104.05 Y127.676 E14.53035
G1 X103.467 Y127.696 E14.54975
G1 X94.075 Y127.699 E14.86213
G1 X93.377 Y127.69 E14.88535
G1 X92.476 Y127.639 E14.91537
G1 X91.582 Y127.507 E14.94542
G1 X90.704 Y127.298 E14.97544
G1 X89.847 Y127.011 E15.0055
G1 X89.02 Y126.65 E15.03551
G1 X88.227 Y126.217 E15.06556
G1 X87.476 Y125.716 E15.09559
G1 X86.772 Y125.15 E15.12563
G1 X86.121 Y124.524 E15.15567
G1 X85.528 Y123.843 E15.18571
G1 X84.998 Y123.112 E15.21574
G1 X84.534 Y122.337 E15.24578
G1 X84.14 Y121.524 E15.27583
G1 X83.82 Y120.68 E15.30585
G1 X83.576 Y119.81 E15.3359
G1 X83.41 Y118.922 E15.36595
G1 X83.313 Y117.767 E15.4045
G1 X83.3 Y117.158 E15.42476
G1 X83.301 Y103.036 E15.89446
G1 X83.31 Y102.371 E15.91658
G1 X83.362 Y101.469 E15.94663
G1 X83.494 Y100.576 E15.97666
G1 X83.704 Y99.698 E16.00668
G1 X83.991 Y98.841 E16.03674
G1 X84.353 Y98.014 E16.06677
G1 X84.786 Y97.222 E16.09679
G1 X85.288 Y96.471 E16.12683
G1 X85.855 Y95.767 E16.1569
G1 X86.481 Y95.117 E16.18691
G1 X87.162 Y94.524 E16.21695
G1 F1500 E9.71695
G1 F300 Z0.4
;MESH:Body1.stl(1)
G0 F6000 X102.9 Y116.9 Z0.4
;TYPE:WALL-INNER
G1 F300 Z0.2
G1 F1500 E16.21695
G1 F1200 X102.9 Y107.5 E16.52959
G1 X102.9 Y103.1 E16.67594
G1 X94.1 Y103.1 E16.96863
G1 X94.1 Y116.9 E17.42762
G1 X102.9 Y116.9 E17.72031
G0 F6000 X103.3 Y117.3
;TYPE:WALL-OUTER
G1 F1200 X103.3 Y107.5 E18.04626
G1 X103.3 Y102.7 E18.2059
G1 X93.7 Y102.7 E18.5252
G1 X93.7 Y117.3 E19.0108
G1 X103.3 Y117.3 E19.3301
G0 F6000 X102.54 Y116.54
;TYPE:SKIN
G1 F1200 X102.54 Y107.5 E19.63077
G1 X102.54 Y103.46 E19.76514
G1 X94.46 Y103.46 E20.03388
G1 X94.46 Y116.54 E20.46892
G1 X102.54 Y116.54 E20.73767
G1 F1500 E14.23767
G1 F300 Z0.4
G0 F6000 X94.843 Y116.339 Z0.4
G1 F300 Z0.2
G1 F1500 E20.73767
G1 F1200 X94.659 Y116.155 E20.74632
G0 F6000 X94.659 Y115.59
G1 F1200 X95.409 Y116.339 E20.78158
G0 F6000 X95.974 Y116.339
G1 F1200 X94.659 Y115.024 E20.84343
G0 F6000 X94.659 Y114.458
G1 F1200 X96.54 Y116.339 E20.93191
G0 F6000 X97.106 Y116.339
G1 F1200 X94.659 Y113.892 E21.047
G0 F6000 X94.659 Y113.327
G1 F1200 X97.671 Y116.339 E21.18868
G0 F6000 X98.237 Y116.339
G1 F1200 X94.659 Y112.761 E21.35698
G0 F6000 X94.659 Y112.195
G1 F1200 X98.803 Y116.339 E21.5519
G0 F6000 X99.369 Y116.339
G1 F1200 X94.659 Y111.63 E21.77342
G0 F6000 X94.659 Y111.064
G1 F1200 X99.934 Y116.339 E22.02154
G0 F6000 X100.5 Y116.339
G1 F1200 X94.659 Y110.498 E22.29628
G0 F6000 X94.659 Y109.933
G1 F1200 X101.066 Y116.339 E22.59762
G0 F6000 X101.631 Y116.339
G1 F1200 X94.659 Y109.367 E22.92557
G0 F6000 X94.659 Y108.801
G1 F1200 X102.197 Y116.339 E23.28013
G0 F6000 X102.34 Y115.916
G1 F1200 X94.659 Y108.236 E23.6414
G0 F6000 X94.659 Y107.67
G1 F1200 X102.34 Y115.351 E24.00269
G0 F6000 X102.34 Y114.785
G1 F1200 X94.659 Y107.104 E24.36398
G0 F6000 X94.659 Y106.539
G1 F1200 X102.34 Y114.219 E24.72525
G0 F6000 X102.34 Y113.653
G1 F1200 X94.659 Y105.973 E25.08651
G0 F6000 X94.659 Y105.407
G1 F1200 X102.34 Y113.088 E25.4478
G0 F6000 X102.34 Y112.522
G1 F1200 X94.659 Y104.842 E25.80907
G0 F6000 X94.659 Y104.276
G1 F1200 X102.34 Y111.956 E26.17034
G0 F6000 X102.34 Y111.391
G1 F1200 X94.659 Y103.71 E26.53163
G0 F6000 X95.173 Y103.659
G1 F1200 X102.34 Y110.825 E26.86872
G0 F6000 X102.34 Y110.259
G1 F1200 X95.739 Y103.659 E27.17919
G0 F6000 X96.305 Y103.659
G1 F1200 X102.34 Y109.694 E27.46305
G0 F6000 X102.34 Y109.128
G1 F1200 X96.87 Y103.659 E27.72032
G0 F6000 X97.436 Y103.659
G1 F1200 X102.34 Y108.562 E27.95097
G0 F6000 X102.34 Y107.997
G1 F1200 X98.002 Y103.659 E28.15501
G0 F6000 X98.567 Y103.659
G1 F1200 X102.34 Y107.431 E28.33246
G0 F6000 X102.34 Y106.865
G1 F1200 X99.133 Y103.659 E28.48329
G0 F6000 X99.699 Y103.659
G1 F1200 X102.34 Y106.3 E28.60751
G0 F6000 X102.34 Y105.734
G1 F1200 X100.264 Y103.659 E28.70513
G0 F6000 X100.83 Y103.659
G1 F1200 X102.34 Y105.168 E28.77614
G0 F6000 X102.34 Y104.603
G1 F1200 X101.396 Y103.659 E28.82054
G0 F6000 X101.961 Y103.659
G1 F1200 X102.34 Y104.037 E28.83834
G1 F1500 E22.33834
G1 F300 Z0.4
;MESH:Body1.stl(2)
G0 F6000 X117.1 Y116.9 Z0.4
;TYPE:WALL-INNER
G1 F300 Z0.2
G1 F1500 E28.83834
G1 F1200 X125.9 Y116.9 E29.13103
G1 X125.9 Y107.5 E29.44368
G1 X125.9 Y103.1 E29.59002
G1 X117.1 Y103.1 E29.88271
G1 X117.1 Y116.9 E30.3417
G0 F6000 X116.7 Y117.3
;TYPE:WALL-OUTER
G1 F1200 X126.3 Y117.3 E30.661
G1 X126.3 Y107.5 E30.98695
G1 X126.3 Y102.7 E31.1466
G1 X116.7 Y102.7 E31.46589
G1 X116.7 Y117.3 E31.95149
G0 F6000 X117.46 Y116.54
;TYPE:SKIN
G1 F1200 X125.54 Y116.54 E32.22023
G1 X125.54 Y107.5 E32.52091
G1 X125.54 Y103.46 E32.65528
G1 X117.46 Y103.46 E32.92402
G1 X117.46 Y116.54 E33.35906
G0 F6000 X118.036 Y116.339
G1 F1200 X117.659 Y115.961 E33.37682
G0 F6000 X117.659 Y115.396
G1 F1200 X118.602 Y116.339 E33.42117
G0 F6000 X119.167 Y116.339
G1 F1200 X117.659 Y114.83 E33.49213
G0 F6000 X117.659 Y114.264
G1 F1200 X119.733 Y116.339 E33.58971
G0 F6000 X120.299 Y116.339
G1 F1200 X117.659 Y113.699 E33.71388
G0 F6000 X117.659 Y113.133
G1 F1200 X120.865 Y116.339 E33.86468
G0 F6000 X121.43 Y116.339
G1 F1200 X117.659 Y112.567 E34.04208
G0 F6000 X117.659 Y112.002
G1 F1200 X121.996 Y116.339 E34.24608
G0 F6000 X122.562 Y116.339
G1 F1200 X117.659 Y111.436 E34.47671
G0 F6000 X117.659 Y110.87
G1 F1200 X123.127 Y116.339 E34.73393
G0 F6000 X123.693 Y116.339
G1 F1200 X117.659 Y110.305 E35.01775
G0 F6000 X117.659 Y109.739
G1 F1200 X124.259 Y116.339 E35.32819
G0 F6000 X124.824 Y116.339
G1 F1200 X117.659 Y109.173 E35.66523
G0 F6000 X117.659 Y108.608
G1 F1200 X125.339 Y116.288 E36.02648
G0 F6000 X125.339 Y115.722
G1 F1200 X117.659 Y108.042 E36.38772
G0 F6000 X117.659 Y107.476
G1 F1200 X125.339 Y115.157 E36.74899
G0 F6000 X125.339 Y114.591
G1 F1200 X117.659 Y106.911 E37.11023
G0 F6000 X117.659 Y106.345
G1 F1200 X125.339 Y114.025 E37.47148
G0 F6000 X125.339 Y113.46
G1 F1200 X117.659 Y105.779 E37.83274
G0 F6000 X117.659 Y105.213
G1 F1200 X125.339 Y112.894 E38.19401
G0 F6000 X125.339 Y112.328
G1 F1200 X117.659 Y104.648 E38.55525
G0 F6000 X117.659 Y104.082
G1 F1200 X125.339 Y111.763 E38.91652
G0 F6000 X125.339 Y111.197
G1 F1200 X117.801 Y103.659 E39.27109
G0 F6000 X118.367 Y103.659
G1 F1200 X125.339 Y110.631 E39.59903
G0 F6000 X125.339 Y110.066
G1 F1200 X118.933 Y103.659 E39.90037
G0 F6000 X119.498 Y103.659
G1 F1200 X125.339 Y109.5 E40.17511
G0 F6000 X125.339 Y108.934
G1 F1200 X120.064 Y103.659 E40.42323
G0 F6000 X120.63 Y103.659
G1 F1200 X125.339 Y108.369 E40.64475
G0 F6000 X125.339 Y107.803
G1 F1200 X121.195 Y103.659 E40.83967
G0 F6000 X121.761 Y103.659
G1 F1200 X125.339 Y107.237 E41.00797
G0 F6000 X125.339 Y106.672
G1 F1200 X122.327 Y103.659 E41.14967
G0 F6000 X122.893 Y103.659
G1 F1200 X125.339 Y106.106 E41.26475
G0 F6000 X125.339 Y105.54
G1 F1200 X123.458 Y103.659 E41.35322
G0 F6000 X124.024 Y103.659
G1 F1200 X125.339 Y104.974 E41.41508
G0 F6000 X125.339 Y104.409
G1 F1200 X124.59 Y103.659 E41.45033
G0 F6000 X125.155 Y103.659
M104 S210
G1 F1200 X125.339 Y103.843 E41.45899
G1 F1500 E34.95899
G1 F300 Z0.4
;MESH:NONMESH
G0 F6000 X102.9 Y116.9 Z0.4
;TIME_ELAPSED:75.536559
;LAYER:1
M106 S85
;TYPE:WALL-INNER
;MESH:Body1.stl(1)
G1 F300 Z0.4
G1 F1500 E41.45899
G1 X102.9 Y103.1 E41.91798
G1 X94.1 Y103.1 E42.21066
G1 X94.1 Y116.9 E42.66965
