;FLAVOR:Marlin
;TIME:24061
;Filament used: 24.2188m
;Layer height: 0.2
;MINX:9.044
;MINY:9.035
;MINZ:0.2
;MAXX:210.967
;MAXY:210.968
;MAXZ:5.2
;Generated with Cura_SteamEngine 5.2.1
M82 ;absolute extrusion mode
; Ender 3 Custom Start G-code
G92 E0 ; Reset Extruder
G28 ; Home all axes
M104 S175 ; Start heating up the nozzle most of the way
M190 S70 ; Start heating the bed, wait until target temperature reached
M109 S210.0 ; Finish heating the nozzle
G1 Z2.0 F3000 ; Move Z Axis up little to prevent scratching of Heat Bed
G1 X0.1 Y20 Z0.3 F5000.0 ; Move to start position
G1 X0.1 Y200.0 Z0.3 F1500.0 E15 ; Draw the first line
G1 X0.4 Y200.0 Z0.3 F5000.0 ; Move to side a little
G1 X0.4 Y20 Z0.3 F1500.0 E30 ; Draw the second line
G92 E0 ; Reset Extruder
G1 Z2.0 F3000 ; Move Z Axis up little to prevent scratching of Heat Bed
G1 X5 Y20 Z0.3 F5000.0 ; Move over to prevent blob squish
G92 E0
G92 E0
G1 F1500 E-6.5
;LAYER_COUNT:25
;LAYER:0
M107
G1 F300 Z0.4
G0 F6000 X38.143 Y39.081 Z0.4
;TYPE:SKIRT
G1 F300 Z0.2
G1 F1500 E0
G1 F1200 X38.782 Y38.45 E0.02987
G1 X41.789 Y35.574 E0.16826
G1 X42.525 Y34.897 E0.20152
G1 X43.273 Y34.244 E0.23455
G1 X46.373 Y31.618 E0.36968
G1 X47.133 Y30.998 E0.4023
G1 X47.787 Y30.491 E0.42982
G1 X51.188 Y27.942 E0.57118
G1 X51.935 Y27.404 E0.6018
G1 X52.705 Y26.878 E0.63282
G1 X56.218 Y24.559 E0.77282
G1 X56.985 Y24.074 E0.803
G1 X57.78 Y23.598 E0.83382
G1 X61.393 Y21.512 E0.97258
G1 X62.243 Y21.042 E1.00489
G1 X63.153 Y20.571 E1.03897
G1 X66.667 Y18.813 E1.16965
G1 X67.635 Y18.351 E1.20533
G1 X68.437 Y17.993 E1.23454
G1 X72.32 Y16.333 E1.375
G1 X73.182 Y15.983 E1.40594
G1 X74.18 Y15.609 E1.44139
G1 X77.98 Y14.249 E1.57563
G1 X78.899 Y13.94 E1.60787
G1 X79.863 Y13.643 E1.64142
G1 X83.801 Y12.494 E1.77786
G1 X84.37 Y12.337 E1.7975
G1 X85.706 Y12.007 E1.84327
G1 X89.477 Y11.146 E1.97192
G1 X90.575 Y10.915 E2.00924
G1 X91.44 Y10.757 E2.03848
G1 X95.635 Y10.06 E2.17992
G1 X96.196 Y9.975 E2.1988
G1 X97.411 Y9.824 E2.23952
G1 X101.586 Y9.384 E2.37915
G1 X102.567 Y9.3 E2.4119
G1 X103.58 Y9.24 E2.44565
G1 X107.452 Y9.066 E2.57456
G1 X108.59 Y9.035 E2.61242
G1 X109.62 Y9.035 E2.64668
G1 X113.522 Y9.093 E2.77648
G1 X114.642 Y9.13 E2.81375
G1 X115.466 Y9.179 E2.8412
G1 X119.744 Y9.499 E2.98389
G1 X120.621 Y9.583 E3.01319
G1 X121.701 Y9.713 E3.04937
G1 X125.709 Y10.257 E3.1839
G1 X126.306 Y10.346 E3.20398
G1 X127.624 Y10.581 E3.2485
G1 X131.475 Y11.339 E3.37905
G1 X132.545 Y11.569 E3.41545
G1 X133.568 Y11.818 E3.45047
G1 X137.491 Y12.84 E3.5853
G1 X138.404 Y13.096 E3.61684
G1 X139.404 Y13.405 E3.65165
G1 X143.218 Y14.645 E3.78504
G1 X144.165 Y14.972 E3.81836
G1 X144.983 Y15.279 E3.84742
G1 X148.888 Y16.812 E3.98695
G1 X149.78 Y17.183 E4.01908
G1 X150.717 Y17.6 E4.0532
G1 X154.254 Y19.238 E4.18284
G1 X155.278 Y19.735 E4.2207
G1 X156.135 Y20.18 E4.25282
G1 X159.66 Y22.076 E4.38594
G1 X160.535 Y22.568 E4.41933
G1 X161.348 Y23.053 E4.45082
G1 X164.745 Y25.15 E4.58359
G1 X165.713 Y25.772 E4.62186
G1 X166.571 Y26.357 E4.6564
G1 X169.911 Y28.71 E4.79229
G1 X170.638 Y29.243 E4.82227
G1 X171.343 Y29.788 E4.85191
G1 X174.529 Y32.327 E4.98741
G1 X175.367 Y33.02 E5.02358
G1 X176.131 Y33.688 E5.05733
G1 X179.039 Y36.307 E5.1875
G1 X179.875 Y37.086 E5.2255
G1 X180.564 Y37.766 E5.2577
G1 X183.328 Y40.571 E5.38868
G1 X184.067 Y41.348 E5.42434
G1 X184.821 Y42.185 E5.46181
G1 X187.365 Y45.098 E5.59045
G1 X187.853 Y45.671 E5.61548
G1 X188.601 Y46.601 E5.65517
G1 X191.068 Y49.788 E5.78922
G1 X191.562 Y50.444 E5.81653
G1 X192.37 Y51.584 E5.86301
G1 X194.523 Y54.742 E5.99013
G1 X195.158 Y55.709 E6.02861
G1 X195.704 Y56.593 E6.06317
G1 X197.686 Y59.911 E6.19172
G1 X198.25 Y60.893 E6.22938
G1 X198.673 Y61.678 E6.25904
G1 X200.534 Y65.261 E6.39333
G1 X201.026 Y66.253 E6.43015
G1 X201.469 Y67.21 E6.46523
G1 X203.05 Y70.759 E6.59445
G1 X203.475 Y71.761 E6.63065
G1 X203.862 Y72.745 E6.66582
G1 X205.285 Y76.54 E6.80063
G1 X205.592 Y77.408 E6.83125
G1 X205.935 Y78.464 E6.86818
G1 X207.078 Y82.175 E6.99733
G1 X207.369 Y83.183 E7.03222
G1 X207.65 Y84.269 E7.06953
G1 X208.586 Y88.107 E7.20093
G1 X208.811 Y89.11 E7.23512
G1 X208.969 Y89.91 E7.26224
G1 X209.701 Y93.937 E7.39837
G1 X209.882 Y95.039 E7.43551
G1 X209.997 Y95.889 E7.46404
G1 X210.493 Y100.015 E7.60226
G1 X210.597 Y101.04 E7.63653
G1 X210.661 Y101.875 E7.66438
G1 X210.914 Y106.087 E7.80473
G1 X210.954 Y107.073 E7.83755
G1 X210.967 Y107.9 E7.86506
G1 X210.967 Y112.143 E8.00618
G1 X210.948 Y113.091 E8.03772
G1 X210.9 Y114.143 E8.07274
G1 X210.659 Y118.16 E8.20659
G1 X210.581 Y119.138 E8.23922
G1 X210.472 Y120.169 E8.2737
G1 X209.996 Y124.121 E8.4061
G1 X209.902 Y124.823 E8.42965
G1 X209.691 Y126.115 E8.4732
G1 X208.948 Y130.207 E8.61152
G1 X208.778 Y131.043 E8.6399
G1 X208.544 Y132.07 E8.67493
G1 X207.626 Y135.831 E8.80369
G1 X207.328 Y136.966 E8.84272
G1 X207.05 Y137.914 E8.87558
G1 X205.892 Y141.674 E9.00644
G1 X205.665 Y142.378 E9.03104
G1 X205.201 Y143.685 E9.07717
G1 X203.839 Y147.315 E9.20612
G1 X203.427 Y148.356 E9.24336
G1 X203.007 Y149.339 E9.27891
G1 X201.439 Y152.858 E9.40705
G1 X200.954 Y153.898 E9.44521
G1 X200.503 Y154.799 E9.47873
G1 X198.655 Y158.357 E9.61208
G1 X198.17 Y159.25 E9.64588
G1 X197.649 Y160.152 E9.68052
G1 X195.65 Y163.498 E9.81016
G1 X195.085 Y164.406 E9.84573
G1 X194.479 Y165.323 E9.88229
G1 X192.256 Y168.582 E10.0135
G1 X191.66 Y169.423 E10.04778
G1 X191.137 Y170.122 E10.07682
G1 X188.683 Y173.296 E10.21026
G1 X187.97 Y174.185 E10.24816
G1 X187.279 Y175.001 E10.28372
G1 X184.641 Y178.019 E10.41704
G1 X183.998 Y178.727 E10.44885
G1 X183.264 Y179.495 E10.48419
G1 X180.432 Y182.366 E10.61832
G1 X179.746 Y183.037 E10.65023
G1 X178.982 Y183.745 E10.68488
G1 X176.065 Y186.371 E10.81542
G1 X175.27 Y187.062 E10.85045
G1 X174.456 Y187.732 E10.88552
G1 X171.397 Y190.171 E11.01564
G1 X170.798 Y190.636 E11.04086
G1 X169.675 Y191.457 E11.08713
G1 X166.494 Y193.697 E11.21653
G1 X165.581 Y194.316 E11.25322
G1 X164.855 Y194.78 E11.28188
G1 X161.381 Y196.929 E11.41774
G1 X160.451 Y197.48 E11.4537
G1 X159.536 Y197.989 E11.48852
G1 X155.944 Y199.921 E11.62418
G1 X155.105 Y200.351 E11.65553
G1 X154.373 Y200.704 E11.68256
G1 X150.522 Y202.489 E11.82374
G1 X149.641 Y202.876 E11.85574
G1 X148.639 Y203.286 E11.89175
G1 X144.934 Y204.741 E12.02414
G1 X143.989 Y205.091 E12.05766
G1 X143.205 Y205.359 E12.08522
G1 X139.169 Y206.671 E12.22637
G1 X138.56 Y206.859 E12.24757
G1 X137.293 Y207.213 E12.29132
G1 X133.501 Y208.199 E12.42164
G1 X132.399 Y208.465 E12.45934
G1 X131.433 Y208.67 E12.49219
G1 X127.598 Y209.425 E12.62219
G1 X126.473 Y209.625 E12.66019
G1 X125.452 Y209.778 E12.69453
G1 X121.483 Y210.315 E12.82774
G1 X120.507 Y210.429 E12.86043
G1 X119.433 Y210.525 E12.89629
G1 X115.406 Y210.826 E13.0306
G1 X114.462 Y210.878 E13.06205
G1 X113.469 Y210.907 E13.09509
G1 X109.539 Y210.967 E13.22582
G1 X108.769 Y210.968 E13.25143
G1 X107.382 Y210.931 E13.29758
G1 X103.371 Y210.75 E13.43112
G1 X102.7 Y210.71 E13.45348
G1 X101.387 Y210.596 E13.49731
G1 X97.515 Y210.189 E13.6268
G1 X96.401 Y210.052 E13.66413
G1 X95.334 Y209.891 E13.70002
G1 X91.55 Y209.263 E13.8276
G1 X90.727 Y209.115 E13.85541
G1 X89.431 Y208.845 E13.89944
G1 X85.465 Y207.938 E14.03476
G1 X84.545 Y207.709 E14.06629
G1 X83.548 Y207.433 E14.1007
G1 X79.635 Y206.29 E14.23629
G1 X78.747 Y206.011 E14.26724
G1 X77.775 Y205.679 E14.30141
G1 X74.121 Y204.37 E14.4305
G1 X73.054 Y203.966 E14.46845
G1 X72.078 Y203.565 E14.50355
G1 X68.417 Y201.998 E14.636
G1 X67.769 Y201.71 E14.65958
G1 X66.605 Y201.154 E14.70249
G1 X62.925 Y199.314 E14.83933
G1 X62.146 Y198.905 E14.86859
G1 X61.276 Y198.42 E14.90172
G1 X57.841 Y196.438 E15.03363
G1 X56.878 Y195.859 E15.071
G1 X55.992 Y195.293 E15.10597
G1 X52.777 Y193.171 E15.23409
G1 X51.817 Y192.513 E15.2728
G1 X51.142 Y192.023 E15.30054
G1 X47.775 Y189.499 E15.4405
G1 X47.004 Y188.897 E15.47304
G1 X46.194 Y188.232 E15.50789
G1 X43.212 Y185.705 E15.6379
G1 X42.657 Y185.222 E15.66237
G1 X41.754 Y184.392 E15.70316
G1 X38.686 Y181.459 E15.84433
G1 X38.046 Y180.822 E15.87436
G1 X37.306 Y180.047 E15.91
G1 X34.689 Y177.227 E16.03796
G1 X33.92 Y176.368 E16.07631
G1 X33.253 Y175.579 E16.11067
G1 X30.704 Y172.478 E16.24419
G1 X30.079 Y171.687 E16.27772
G1 X29.495 Y170.908 E16.3101
G1 X27.166 Y167.703 E16.44187
G1 X26.57 Y166.851 E16.47645
G1 X26.067 Y166.092 E16.50674
G1 X23.873 Y162.659 E16.64225
G1 X23.303 Y161.732 E16.67844
G1 X22.778 Y160.822 E16.71338
G1 X20.803 Y157.278 E16.84832
G1 X20.355 Y156.436 E16.88005
G1 X19.914 Y155.552 E16.9129
G1 X18.209 Y152.013 E17.04356
G1 X17.742 Y150.996 E17.08078
G1 X17.326 Y150.019 E17.1161
G1 X15.863 Y146.453 E17.2443
G1 X15.579 Y145.735 E17.26998
G1 X15.097 Y144.406 E17.317
G1 X13.8 Y140.601 E17.4507
G1 X13.504 Y139.677 E17.48298
G1 X13.225 Y138.722 E17.51607
G1 X12.182 Y134.943 E17.64646
G1 X11.98 Y134.171 E17.673
G1 X11.68 Y132.871 E17.71737
G1 X10.862 Y129.03 E17.84799
G1 X10.658 Y127.98 E17.88357
G1 X10.478 Y126.896 E17.92011
G1 X9.905 Y123.088 E18.04819
G1 X9.796 Y122.296 E18.07478
G1 X9.653 Y120.982 E18.11875
G1 X9.302 Y117.085 E18.24889
G1 X9.219 Y115.942 E18.287
G1 X9.181 Y115.102 E18.31497
G1 X9.058 Y111.023 E18.4507
G1 X9.044 Y109.94 E18.48672
G1 X9.061 Y108.862 E18.52258
G1 X9.182 Y104.855 E18.65592
G1 X9.231 Y103.868 E18.68878
G1 X9.305 Y102.882 E18.72167
G1 X9.659 Y98.946 E18.85311
G1 X9.775 Y97.879 E18.88881
G1 X9.917 Y96.836 E18.92382
G1 X10.517 Y92.858 E19.05762
G1 X10.68 Y91.903 E19.08985
G1 X10.887 Y90.855 E19.12538
G1 X11.725 Y86.919 E19.25922
G1 X11.94 Y85.994 E19.29081
G1 X12.155 Y85.161 E19.31942
G1 X13.288 Y81.055 E19.46109
G1 X13.55 Y80.172 E19.49173
G1 X13.821 Y79.338 E19.52089
G1 X15.136 Y75.483 E19.65637
G1 X15.517 Y74.429 E19.69364
G1 X15.828 Y73.637 E19.72194
G1 X17.424 Y69.741 E19.86197
G1 X17.812 Y68.845 E19.89445
G1 X18.169 Y68.075 E19.92268
G1 X19.935 Y64.402 E20.05823
G1 X20.433 Y63.413 E20.09506
G1 X20.919 Y62.512 E20.12911
G1 X22.815 Y59.111 E20.25862
G1 X23.385 Y58.13 E20.29635
G1 X23.913 Y57.278 E20.32969
G1 X26.046 Y53.938 E20.4615
G1 X26.625 Y53.067 E20.49629
G1 X27.206 Y52.241 E20.52987
G1 X29.54 Y49.031 E20.66188
G1 X30.18 Y48.183 E20.69721
G1 X30.829 Y47.368 E20.73187
G1 X33.316 Y44.343 E20.86212
G1 X33.796 Y43.774 E20.88688
G1 X34.631 Y42.839 E20.92857
G1 X37.436 Y39.815 E21.06576
G1 X38.143 Y39.081 E21.09965
G0 F6000 X38.202 Y39.591
G1 F1200 X39.185 Y38.616 E21.1457
G1 X42.061 Y35.867 E21.27803
G1 X42.556 Y35.407 E21.3005
G1 X43.4 Y34.662 E21.33794
G1 X46.627 Y31.927 E21.47864
G1 X47.136 Y31.508 E21.50057
G1 X48.17 Y30.703 E21.54415
G1 X51.424 Y28.265 E21.67939
G1 X52.161 Y27.734 E21.7096
G1 X52.931 Y27.208 E21.74061
G1 X56.433 Y24.896 E21.88019
G1 X56.931 Y24.578 E21.89984
G1 X58.131 Y23.856 E21.94642
G1 X61.588 Y21.861 E22.07917
G1 X62.427 Y21.397 E22.11106
G1 X63.192 Y21 E22.13972
G1 X66.846 Y19.171 E22.27563
G1 X67.523 Y18.844 E22.30064
G1 X68.754 Y18.291 E22.34552
G1 X72.473 Y16.702 E22.48003
G1 X73.323 Y16.357 E22.51055
G1 X74.158 Y16.043 E22.54022
G1 X78.11 Y14.628 E22.67983
G1 X79.017 Y14.322 E22.71167
G1 X79.975 Y14.027 E22.74501
G1 X83.755 Y12.923 E22.87599
G1 X84.779 Y12.644 E22.91129
G1 X85.638 Y12.434 E22.9407
G1 X89.707 Y11.505 E23.07951
G1 X90.647 Y11.309 E23.11145
G1 X91.681 Y11.121 E23.14641
G1 X95.547 Y10.479 E23.27675
G1 X96.578 Y10.327 E23.31141
G1 X97.614 Y10.203 E23.34612
G1 X101.468 Y9.797 E23.47501
G1 X102.273 Y9.723 E23.5019
G1 X103.435 Y9.648 E23.54063
G1 X107.623 Y9.46 E23.68006
G1 X108.591 Y9.435 E23.71227
G1 X109.615 Y9.435 E23.74632
G1 X113.517 Y9.493 E23.87612
G1 X114.309 Y9.516 E23.90247
G1 X115.603 Y9.589 E23.94558
G1 X119.551 Y9.884 E24.07726
G1 X120.266 Y9.947 E24.10113
G1 X121.647 Y10.109 E24.14738
G1 X125.511 Y10.633 E24.27707
G1 X126.576 Y10.796 E24.31291
G1 X127.392 Y10.944 E24.34049
G1 X131.544 Y11.761 E24.48123
G1 X132.154 Y11.89 E24.50197
G1 X133.467 Y12.205 E24.54688
G1 X137.247 Y13.189 E24.67679
G1 X138.287 Y13.478 E24.71269
G1 X139.117 Y13.733 E24.74157
G1 X143.09 Y15.024 E24.88052
G1 X144.025 Y15.347 E24.91342
G1 X144.843 Y15.654 E24.94248
G1 X148.736 Y17.182 E25.08158
G1 X149.336 Y17.428 E25.10315
G1 X150.548 Y17.963 E25.14721
G1 X154.221 Y19.665 E25.28185
G1 X155.094 Y20.09 E25.31415
G1 X155.802 Y20.457 E25.34067
G1 X159.613 Y22.507 E25.4846
G1 X160.33 Y22.912 E25.51199
G1 X161.282 Y23.481 E25.54888
G1 X164.535 Y25.49 E25.67604
G1 X165.232 Y25.934 E25.70353
G1 X166.341 Y26.684 E25.74806
G1 X169.559 Y28.95 E25.87896
G1 X170.393 Y29.56 E25.91333
G1 X171.223 Y30.202 E25.94823
G1 X174.28 Y32.639 E26.07826
G1 X175.104 Y33.321 E26.11384
G1 X175.735 Y33.871 E26.14168
G1 X178.876 Y36.7 E26.28227
G1 X179.594 Y37.371 E26.31496
G1 X180.279 Y38.047 E26.34697
G1 X183.148 Y40.959 E26.48293
G1 X183.558 Y41.387 E26.50265
G1 X184.52 Y42.448 E26.55028
G1 X187.064 Y45.361 E26.67891
G1 X187.758 Y46.185 E26.71475
G1 X188.383 Y46.971 E26.74815
G1 X190.752 Y50.033 E26.87691
G1 X191.431 Y50.944 E26.9147
G1 X192.039 Y51.809 E26.94987
G1 X194.273 Y55.087 E27.0818
G1 X194.818 Y55.919 E27.11489
G1 X195.361 Y56.798 E27.14925
G1 X197.343 Y60.116 E27.2778
G1 X197.744 Y60.808 E27.3044
G1 X198.397 Y62.012 E27.34995
G1 X200.179 Y65.445 E27.4786
G1 X200.664 Y66.421 E27.51485
G1 X201.037 Y67.225 E27.54433
G1 X202.685 Y70.922 E27.67896
G1 X202.988 Y71.627 E27.70448
G1 X203.423 Y72.718 E27.74354
G1 X204.908 Y76.675 E27.88412
G1 X205.212 Y77.532 E27.91436
G1 X205.5 Y78.415 E27.94525
G1 X206.735 Y82.426 E28.08484
G1 X206.982 Y83.284 E28.11453
G1 X207.262 Y84.364 E28.15164
G1 X208.162 Y88.051 E28.27787
G1 X208.351 Y88.872 E28.3059
G1 X208.576 Y89.987 E28.34373
G1 X209.331 Y94.143 E28.48422
G1 X209.485 Y95.093 E28.51623
G1 X209.62 Y96.098 E28.54996
G1 X210.078 Y99.905 E28.67749
G1 X210.198 Y101.071 E28.71648
G1 X210.274 Y102.082 E28.7502
G1 X210.514 Y106.105 E28.88424
G1 X210.554 Y107.079 E28.91666
G1 X210.567 Y107.906 E28.94417
G1 X210.567 Y112.138 E29.08493
G1 X210.549 Y113.073 E29.11603
G1 X210.51 Y113.955 E29.1454
G1 X210.271 Y117.971 E29.27921
G1 X210.184 Y119.096 E29.31674
G1 X210.094 Y119.957 E29.34553
G1 X209.617 Y123.927 E29.47852
G1 X209.456 Y125.099 E29.51787
G1 X209.298 Y126.044 E29.54974
G1 X208.586 Y129.969 E29.68241
G1 X208.388 Y130.955 E29.71586
G1 X208.156 Y131.976 E29.75069
G1 X207.238 Y135.737 E29.87945
G1 X207.031 Y136.538 E29.90697
G1 X206.711 Y137.65 E29.94545
G1 X205.509 Y141.556 E30.08138
G1 X205.182 Y142.555 E30.11634
G1 X204.883 Y143.391 E30.14587
G1 X203.408 Y147.322 E30.28552
G1 X203.059 Y148.199 E30.31691
G1 X202.711 Y149.016 E30.34645
G1 X201.017 Y152.819 E30.48492
G1 X200.596 Y153.719 E30.51796
G1 X200.148 Y154.615 E30.55128
G1 X198.303 Y158.168 E30.68444
G1 X197.824 Y159.05 E30.71782
G1 X197.306 Y159.946 E30.75224
G1 X195.233 Y163.415 E30.88665
G1 X194.752 Y164.186 E30.91688
G1 X194.238 Y164.965 E30.94792
G1 X191.929 Y168.352 E31.08426
G1 X191.529 Y168.922 E31.10742
G1 X190.713 Y170.018 E31.15287
G1 X188.366 Y173.052 E31.28045
G1 X187.665 Y173.927 E31.31774
G1 X187.092 Y174.605 E31.34726
G1 X184.344 Y177.751 E31.4862
G1 X183.708 Y178.451 E31.51765
G1 X182.979 Y179.214 E31.55275
G1 X180.15 Y182.082 E31.68674
G1 X179.474 Y182.744 E31.71821
G1 X178.838 Y183.335 E31.74709
G1 X175.688 Y186.171 E31.88806
G1 X175.015 Y186.754 E31.91768
G1 X174.206 Y187.419 E31.95251
G1 X171.147 Y189.858 E32.08263
G1 X170.304 Y190.506 E32.118
G1 X169.445 Y191.13 E32.15331
G1 X166.264 Y193.37 E32.28271
G1 X165.633 Y193.802 E32.30814
G1 X164.639 Y194.443 E32.34748
G1 X161.031 Y196.674 E32.48857
G1 X160.527 Y196.975 E32.5081
G1 X159.487 Y197.56 E32.54779
G1 X155.76 Y199.566 E32.68856
G1 X154.931 Y199.991 E32.71955
G1 X154.052 Y200.414 E32.75199
G1 X150.5 Y202.06 E32.8822
G1 X149.778 Y202.383 E32.90851
G1 X148.493 Y202.914 E32.95475
G1 X144.937 Y204.311 E33.08182
G1 X143.86 Y204.712 E33.12005
G1 X142.923 Y205.031 E33.15297
G1 X139.2 Y206.241 E33.28317
G1 X138.147 Y206.563 E33.3198
G1 X137.193 Y206.826 E33.35271
G1 X133.247 Y207.851 E33.48831
G1 X132.612 Y208.006 E33.51005
G1 X131.356 Y208.277 E33.55279
G1 X127.365 Y209.062 E33.68807
G1 X126.413 Y209.23 E33.72022
G1 X125.399 Y209.382 E33.75433
G1 X121.57 Y209.901 E33.88284
G1 X120.471 Y210.031 E33.91965
G1 X119.564 Y210.113 E33.94994
